!!!!SEGMENT: pl-cz--iii-555--001-003_raszek-waclaw--requiem-dies-irae.krn
!!!cenid: 17xx:1082
!!!COM: Raszek, Wacław
!!!COM-rismID: pe30020314
!!!CDT: <1848->1848
!!!CNT:
!!!OPR: Requiem
!!!OTL: Dies irae
!!!OMV: 003
!!!PDT:
!!!AGN: Sacred; Requiem
!!!YEC: Copyright 2022 Narodowy Instytut Fryderyka Chopina (https://polishscores.org)
!!!YEM: License CC-BY-4.0 (https://creativecommons.org/licenses/by/4.0)
!!!SMS-siglum: PL-CZ
!!!SMS-shelfmark: III-555
!!!SMS-shelfwork: 001-003 M
!!!SMS-variant:
!!!SMS-altvar:
!!!NIFC-rismSourceID: 300001055
!!!NIFC-rismChildID: 300001055
!!!NIFC-islandoraID: pl-cz:38890
!!!URL-pdf-islandora: https://repozytorium.nifc.pl/islandora/object/pl-cz%3A38890/datastream/PDF/view
!!!URL-scan: https://polish.musicsources.pl/pl/lokalizacje/galeria/rekopisy/6945/1 @EN{Scan on Polish Music Sources Website} @PL{Skany w portalu Dziedzictwo Muzyki Polskiej w otwartym dostępie}
!!!IIIF:
!!!ONB-nifc: UWAGA: części Requiem: Requiem, Kyrie, Dies irae, Qui Mariam, Domine Jesu Christe, Sanctus, Pleni sunt, Benedictus, Agnus Dei, Lux aeterna
!!!AIN: 1 alto 1 bass 2 clars 3 empty 1 tenor 1 vox
!!!key:
**kern	**text	**dynam	**kern	**text	**dynam	**mod-dynam	**kern	**text	**dynam	**mod-dynam	**kern	**text	**dynam	**mod-dynam	**kern	**dynam	**kern	**dynam	**kern	**dynam	**mod-dynam	**kern	**dynam	**kern
*part9	*	*	*part8	*	*	*	*part7	*	*	*	*part6	*	*	*	*part5	*	*part4	*	*part3	*	*	*part2	*	*part1
*staff9	*	*	*staff8	*	*	*	*staff7	*	*	*	*staff6	*	*	*	*staff5	*	*staff4	*	*staff3	*	*	*staff2	*	*staff1
*Ibass	*	*	*Itenor	*	*	*	*Ialto	*	*	*	*Ivox	*	*	*	*Iempty	*	*Iempty	*	*Iempty	*	*	*Iclars	*	*Iclars
*I"Basso	*	*	*I"Tenore.	*	*	*	*I"Alto	*	*	*	*I"Canto	*	*	*	*I"Corno IIdo in Dis.	*	*I"Corno 1mo in dis	*	*I"Fagotto vel Violone	*	*	*I"Clarinetto 2do in B.	*	*I"Clarinetto Imo in B.
*	*	*	*mI"Tenore	*	*	*	*	*	*	*	*mI"Soprano	*	*	*	*mI"Corno II in Eb	*	*mI"Corno I in Eb	*	*mI"Fagoto vel Violone	*	*	*mI"Clarinetto II in Bb	*	*mI"Clarinetto I in Bb
*I'B.	*	*	*I'T.	*	*	*	*I'A.	*	*	*	*I'C.	*	*	*	*I'C. II in Dis	*	*I'C. I in dis	*	*I'Fag.	*	*	*I'Cl. II in B♭	*	*I'Cl. I in B♭
*	*	*	*	*	*	*	*	*	*	*	*mI'S	*	*	*	*mI'cor II in Eb	*	*mI'cor I in Eb	*	*mI'bn	*	*	*	*	*
*clefF4	*	*	*clefC4	*	*	*	*clefC3	*	*	*	*clefC1	*	*	*	*clefG2	*	*clefG2	*	*clefF4	*	*	*clefG2	*	*clefG2
*	*	*	*mclefGv2	*	*	*	*mclefG2	*	*	*	*mclefG2	*	*	*	*	*	*	*	*	*	*	*	*	*
*	*	*	*	*	*	*	*	*	*	*	*	*	*	*	*ITrd-2c-3	*	*ITrd-2c-3	*	*	*	*	*ITrd1c2	*	*ITrd1c2
*k[b-e-a-]	*	*	*k[b-e-a-]	*	*	*	*k[b-e-a-]	*	*	*	*k[b-e-a-]	*	*	*	*k[b-e-a-]	*	*k[b-e-a-]	*	*k[b-e-a-]	*	*	*k[b-e-a-]	*	*k[b-e-a-]
*B-:	*	*	*B-:	*	*	*	*B-:	*	*	*	*B-:	*	*	*	*B-:	*	*B-:	*	*B-:	*	*	*B-:	*	*B-:
*M2/2	*	*	*M2/2	*	*	*	*M2/2	*	*	*	*M2/2	*	*	*	*M2/2	*	*M2/2	*	*M2/2	*	*	*M2/2	*	*M2/2
*met(c|)	*	*	*met(c|)	*	*	*	*met(c|)	*	*	*	*met(c|)	*	*	*	*met(c|)	*	*met(c|)	*	*met(c|)	*	*	*met(c|)	*	*met(c|)
=1	=1	=1	=1	=1	=1	=1	=1	=1	=1	=1	=1	=1	=1	=1	=1	=1	=1	=1	=1	=1	=1	=1	=1	=1
*2\right	*	*	*2\right	*	*	*	*2\right	*	*	*	*2\right	*	*	*	*2\right	*	*2\right	*	*2\right	*	*	*2\right	*	*
!!!OMD:
!!!OMD-mod: Adagio
!	!	!	!	!	!	!	!	!	!	!	!	!	!	!	!	!	!	!	!	!	!	!	!	!LO:TX:a:t=P:problem=brakująca partia  w źródle
!LO:TX:a:Bi:t=adagio:mod=	!	!	!LO:TX:a:Bi:t=Adagio:mod=	!	!	!	!LO:TX:a:Bi:t=adagio:mod=	!	!	!	!LO:TX:a:Bi:t=adagio:mod=	!	!	!	!LO:TX:a:Bi:t=Adagio.:mod=	!	!LO:TX:a:Bi:t=Adagio:mod=	!	!LO:TX:a:Bi:t=adagio:mod=	!	!	!LO:TX:a:Bi:t=Adagio:mod=	!	!
2E-\	Di-	.	2B-\	Di-	.	.	2g\	Di-	.	.	2ee-\	Di-	.	.	2e-/	.	2ee-\	.	4EE-/	.	.	2g/	.	1ryy
.	.	.	.	.	.	.	.	.	.	.	.	.	.	.	.	.	.	.	4E-\	.	.	.	.	.
2E-\	-es	.	2B-\	-es	.	.	2g\	-es	.	.	2ee-\	-es	.	.	4e-/	.	4ee-\	.	4EE-/	.	.	2g/	.	.
.	.	.	.	.	.	.	.	.	.	.	.	.	.	.	4e-/	.	4ee-\	.	4E-\	.	.	.	.	.
=2	=2	=2	=2	=2	=2	=2	=2	=2	=2	=2	=2	=2	=2	=2	=2	=2	=2	=2	=2	=2	=2	=2	=2	=2
2E-\	i-	.	4.B-\	ir-	.	.	4.g\	ir-	.	.	4.ee-\	ir-	.	.	1e-	.	1ee-	.	4EE-/	.	.	4.g/	.	1ryy
.	.	.	.	.	.	.	.	.	.	.	.	.	.	.	.	.	.	.	4E-\	.	.	.	.	.
.	.	.	8c\	.	.	.	8a-\	.	.	.	16dd\LL	.	.	.	.	.	.	.	.	.	.	8a-/	.	.
.	.	.	.	.	.	.	.	.	.	.	16cc\JJ	.	.	.	.	.	.	.	.	.	.	.	.	.
4E-\	-re	.	4B-\	-re	.	.	4g\	-re	.	.	4b-\	-re	.	.	.	.	.	.	4EE-/	.	.	4g/	.	.
4r	.	.	4r	.	.	.	4r	.	.	.	4r	.	.	.	.	.	.	.	4E-\	.	.	4r	.	.
=3	=3	=3	=3	=3	=3	=3	=3	=3	=3	=3	=3	=3	=3	=3	=3	=3	=3	=3	=3	=3	=3	=3	=3	=3
2E-\	Di-	.	2c\	Di-	.	.	2a-\	Di-	.	.	2cc\	Di-	.	.	4e-/	.	4ee-\	.	4EE-/	.	.	2a-\	.	1ryy
.	.	.	.	.	.	.	.	.	.	.	.	.	.	.	4e-/	.	4ee-\	.	4E-\	.	.	.	.	.
2E-\	-es	.	2c\	-es	.	.	2a-\	-es	.	.	2cc\	-es	.	.	4e-/	.	4ee-\	.	4EE-/	.	.	2a-\	.	.
.	.	.	.	.	.	.	.	.	.	.	.	.	.	.	4e-/	.	4ee-\	.	4E-\	.	.	.	.	.
=4	=4	=4	=4	=4	=4	=4	=4	=4	=4	=4	=4	=4	=4	=4	=4	=4	=4	=4	=4	=4	=4	=4	=4	=4
2D\	il-	.	2d\	il-	.	.	4.a-\	il-	.	.	4.cc\	il-	.	.	2b-/	.	2ff\	.	4DD/	.	.	4a-/	.	1ryy
.	.	.	.	.	.	.	.	.	.	.	.	.	.	.	.	.	.	.	4D\	.	.	8g/L	.	.
.	.	.	.	.	.	.	16g\LL	.	.	.	16b-\LL	.	.	.	.	.	.	.	.	.	.	8f/J	.	.
.	.	.	.	.	.	.	16f\JJ	.	.	.	16a-\JJ	.	.	.	.	.	.	.	.	.	.	.	.	.
4E-\	-la	.	4e-\	la	.	.	4e-\	-la	.	.	4g\	-la	.	.	4ee-\	.	4gg\	.	8E-\L	.	.	4e-/	.	.
.	.	.	.	.	.	.	.	.	.	.	.	.	.	.	.	.	.	.	8G\	.	.	.	.	.
4r	.	.	4r	.	.	.	4r	.	.	.	4r	.	.	.	8e-/L	.	8ee-\L	.	8B-\	.	.	4r	.	.
.	.	.	.	.	.	.	.	.	.	.	.	.	.	.	8e-/J	.	8ee-\J	.	8G\J	.	.	.	.	.
=5	=5	=5	=5	=5	=5	=5	=5	=5	=5	=5	=5	=5	=5	=5	=5	=5	=5	=5	=5	=5	=5	=5	=5	=5
!	!	!	!	!	!	!	!	!	!	!	!	!LO:MO:mod=sol-	!	!	!	!	!	!	!	!	!	!	!	!
2E-\	ſol-	.	2B-\	sol-	.	.	2g\	sol-	.	.	2ee-\	Sol-	.	.	1e-	.	1ee-	.	4E-\	.	.	2g/	.	1ryy
.	.	.	.	.	.	.	.	.	.	.	.	.	.	.	.	.	.	.	4EE-/	.	.	.	.	.
2E-\	-vet	.	2B-\	-vet	.	.	2g\	-vet	.	.	2ee-\	-vet	.	.	.	.	.	.	4GG/	.	.	2g/	.	.
.	.	.	.	.	.	.	.	.	.	.	.	.	.	.	.	.	.	.	4BB-/	.	.	.	.	.
=6	=6	=6	=6	=6	=6	=6	=6	=6	=6	=6	=6	=6	=6	=6	=6	=6	=6	=6	=6	=6	=6	=6	=6	=6
!LO:MO:mod=4.E-	!	!	!	!	!	!	!	!	!	!	!	!LO:MO:mod=se-	!	!	!	!	!	!	!	!	!	!	!	!
2E-\	se-	.	4.B-\	se-	.	.	4.g\	se-	.	.	4.ee-\	Se-	.	.	4e-/	.	4ee-\	.	4E-\	.	.	4.g/	.	1ryy
.	.	.	.	.	.	.	.	.	.	.	.	.	.	.	4e-/	.	4ee-\	.	4EE-/	.	.	.	.	.
!LO:MO:null:mod=8E-	!LO:MO:null:mod=-cu-	!	!	!	!	!	!	!	!	!	!	!	!	!	!	!	!	!	!	!	!	!	!	!
.	.	.	8c\	-cu-	.	.	8a-\	-cu-	.	.	16dd\LL	-cu-	.	.	.	.	.	.	.	.	.	8a-/	.	.
.	.	.	.	.	.	.	.	.	.	.	16cc\JJ	.	.	.	.	.	.	.	.	.	.	.	.	.
!	!LO:MO:mod=-lum	!	!	!LO:MO:mod=-lum	!	!	!	!	!	!	!	!	!	!	!	!	!	!	!	!	!	!	!	!
4E-\	-cul(um)	.	4B-\	-l(um)	.	.	4g\	-lum	.	.	4b-\	-lum	.	.	4e-/	.	4ee-\	.	4E-\	.	.	4g/	.	.
4r	.	.	4r	.	.	.	4r	.	.	.	4r	.	.	.	4e-/	.	4ee-\	.	4EE-/	.	.	4r	.	.
=7	=7	=7	=7	=7	=7	=7	=7	=7	=7	=7	=7	=7	=7	=7	=7	=7	=7	=7	=7	=7	=7	=7	=7	=7
2.E-\	in	.	2c\	in	.	.	2a-\	in	.	.	2cc\	in	.	.	1ryy	.	1ee-	.	4E-\	.	.	2a-\	.	1ryy
.	.	.	.	.	.	.	.	.	.	.	.	.	.	.	.	.	.	.	4EE-/	.	.	.	.	.
.	.	.	2c\	fa-	.	.	4a-\	fa-	.	.	4cc\	fa-	.	.	.	.	.	.	4E-\	.	.	4a-\	.	.
4E-\	fa-	.	.	.	.	.	8cc\L	.	.	.	8ee-\L	.	.	.	.	.	.	.	4EE-/	.	.	8cc\L	.	.
.	.	.	.	.	.	.	8a-\J	.	.	.	8cc\J	.	.	.	.	.	.	.	.	.	.	8a-\J	.	.
=8	=8	=8	=8	=8	=8	=8	=8	=8	=8	=8	=8	=8	=8	=8	=8	=8	=8	=8	=8	=8	=8	=8	=8	=8
2E-\	-vil-	.	2e-\	-vil-	.	.	2a-\	-vil-	.	.	2cc\	-vil-	.	.	2e-/	.	2ee-\	.	4EE-/	.	.	2a-/	.	1ryy
.	.	.	.	.	.	.	.	.	.	.	.	.	.	.	.	.	.	.	4E-\	.	.	.	.	.
2E-\	-la	.	2e-\	-la	.	.	2g\	-la	.	.	2b-\	-la	.	.	4r	.	4r	.	4EE-/	.	.	2g/	.	.
.	.	.	.	.	.	.	.	.	.	.	.	.	.	.	8e-/L	.	8ee-\L	.	8GG/L	.	.	.	.	.
.	.	.	.	.	.	.	.	.	.	.	.	.	.	.	8e-/J	.	8ee-\J	.	8BB-/J	.	.	.	.	.
=9	=9	=9	=9	=9	=9	=9	=9	=9	=9	=9	=9	=9	=9	=9	=9	=9	=9	=9	=9	=9	=9	=9	=9	=9
!LO:TX:a:t=1:mod=	!	!	!LO:TX:a:t=1:mod=	!	!	!	!	!	!	!	!LO:TX:a:t=1:mod=	!	!	!	!	!	!	!	!	!	!	!	!	!
1r	.	.	1r	.	.	.	1r	.	.	.	1r	.	.	.	4e-/	.	4ee-\	.	4E-\	.	.	4g/	.	1ryy
.	.	.	.	.	.	.	.	.	.	.	.	.	.	.	4r	.	4r	.	4r	.	.	4r	.	.
.	.	.	.	.	.	.	.	.	.	.	.	.	.	.	2r	.	2r	.	2r	.	.	2r	.	.
=10	=10	=10	=10	=10	=10	=10	=10	=10	=10	=10	=10	=10	=10	=10	=10	=10	=10	=10	=10	=10	=10	=10	=10	=10
!	!	!	!	!	!	!	!	!	!	!	!	!	!	!	!	!LO:DY:a	!	!LO:DY:a	!	!	!	!	!LO:MO:null:mod=p	!
4r	.	.	4r	.	.	.	4r	.	.	.	4r	.	.	.	1ff	p	1ff	p	4FF/	.	p	8F/L	.	1ryy
.	.	.	.	.	.	.	.	.	.	.	.	.	.	.	.	.	.	.	.	.	.	8c/	.	.
2F\	teſ-	.	2c\	teſ-	.	.	2e-\	teſ-	.	.	2an\	teſ-	.	.	.	.	.	.	4r	.	.	8c/	.	.
.	.	.	.	.	.	.	.	.	.	.	.	.	.	.	.	.	.	.	.	.	.	8c/J	.	.
.	.	.	.	.	.	.	.	.	.	.	.	.	.	.	.	.	.	.	4F\	.	.	8F/L	.	.
.	.	.	.	.	.	.	.	.	.	.	.	.	.	.	.	.	.	.	.	.	.	8c/	.	.
4F\	-te	.	4c\	-te	.	.	4e-\	-te	.	.	4a\	-te	.	.	.	.	.	.	4r	.	.	8c/	.	.
.	.	.	.	.	.	.	.	.	.	.	.	.	.	.	.	.	.	.	.	.	.	8c/J	.	.
=11	=11	=11	=11	=11	=11	=11	=11	=11	=11	=11	=11	=11	=11	=11	=11	=11	=11	=11	=11	=11	=11	=11	=11	=11
2B-\	Da-	.	2B-\	Da-	.	.	2d\	Da-	.	.	2b-\	Da-	.	.	1ff	.	1ff	.	4BB-/	.	.	8F/L	.	1ryy
.	.	.	.	.	.	.	.	.	.	.	.	.	.	.	.	.	.	.	.	.	.	8d/	.	.
.	.	.	.	.	.	.	.	.	.	.	.	.	.	.	.	.	.	.	4r	.	.	8d/	.	.
.	.	.	.	.	.	.	.	.	.	.	.	.	.	.	.	.	.	.	.	.	.	8d/J	.	.
2BB-/	-vid	.	2F/	-vid	.	.	2d\	-vid	.	.	2b-\	-vid	.	.	.	.	.	.	4B-\	.	.	8F/L	.	.
.	.	.	.	.	.	.	.	.	.	.	.	.	.	.	.	.	.	.	.	.	.	8d/	.	.
.	.	.	.	.	.	.	.	.	.	.	.	.	.	.	.	.	.	.	4r	.	.	8d/	.	.
.	.	.	.	.	.	.	.	.	.	.	.	.	.	.	.	.	.	.	.	.	.	8d/J	.	.
=12	=12	=12	=12	=12	=12	=12	=12	=12	=12	=12	=12	=12	=12	=12	=12	=12	=12	=12	=12	=12	=12	=12	=12	=12
4r	.	.	4r	.	.	.	4r	.	.	.	4r	.	.	.	4r	.	4r	.	4FF/	.	.	8A/L	.	1ryy
.	.	.	.	.	.	.	.	.	.	.	.	.	.	.	.	.	.	.	.	.	.	8c/	.	.
2F\	Cum	.	2c\	Cum	.	.	2an\	Cum	.	.	2ee-\	Cum	.	.	4ff\	.	4ff\	.	4r	.	.	8c/	.	.
.	.	.	.	.	.	.	.	.	.	.	.	.	.	.	.	.	.	.	.	.	.	8c/J	.	.
.	.	.	.	.	.	.	.	.	.	.	.	.	.	.	4ff\	.	4ff\	.	4F\	.	.	8A/L	.	.
.	.	.	.	.	.	.	.	.	.	.	.	.	.	.	.	.	.	.	.	.	.	8c/	.	.
!	!LO:MO:mod=si-	!	!	!	!	!	!	!	!	!	!	!	!	!	!	!	!	!	!	!	!	!	!	!
4F\	Si-	.	4c\	si-	.	.	4a\	ſi-	.	.	4ee-\	ſi-	.	.	4ff\	.	4ff\	.	4r	.	.	8c/	.	.
.	.	.	.	.	.	.	.	.	.	.	.	.	.	.	.	.	.	.	.	.	.	8c/J	.	.
=13	=13	=13	=13	=13	=13	=13	=13	=13	=13	=13	=13	=13	=13	=13	=13	=13	=13	=13	=13	=13	=13	=13	=13	=13
2B-\	-bil-	.	2B-\	-bil-	.	.	2b-\	-bil-	.	.	2dd\	-bil-	.	.	1b-	.	1ff	.	4BB-/	.	.	8F/L	.	1ryy
.	.	.	.	.	.	.	.	.	.	.	.	.	.	.	.	.	.	.	.	.	.	8B-/	.	.
.	.	.	.	.	.	.	.	.	.	.	.	.	.	.	.	.	.	.	4r	.	.	8B-/	.	.
.	.	.	.	.	.	.	.	.	.	.	.	.	.	.	.	.	.	.	.	.	.	8B-/J	.	.
2BB-/	-la	.	2B-\	-la	.	.	2f\	-la	.	.	2dd\	-la	.	.	.	.	.	.	4B-\	.	.	8F/L	.	.
.	.	.	.	.	.	.	.	.	.	.	.	.	.	.	.	.	.	.	.	.	.	8B-/	.	.
.	.	.	.	.	.	.	.	.	.	.	.	.	.	.	.	.	.	.	4r	.	.	8B-/	.	.
.	.	.	.	.	.	.	.	.	.	.	.	.	.	.	.	.	.	.	.	.	.	8B-/J	.	.
=14	=14	=14	=14	=14	=14	=14	=14	=14	=14	=14	=14	=14	=14	=14	=14	=14	=14	=14	=14	=14	=14	=14	=14	=14
2r	.	.	4r	.	.	.	4r	.	.	.	4r	.	.	.	4ff\	.	4ff\	.	4FF/	.	.	8F/L	.	1ryy
.	.	.	.	.	.	.	.	.	.	.	.	.	.	.	.	.	.	.	.	.	.	8e-/	.	.
.	.	.	2F/	teſ-	.	.	2f\	teſ-	.	.	2an\	teſ-	.	.	4ff\	.	4ff\	.	4r	.	.	8e-/	.	.
.	.	.	.	.	.	.	.	.	.	.	.	.	.	.	.	.	.	.	.	.	.	8e-/J	.	.
4F\	teſ-	.	.	.	.	.	.	.	.	.	.	.	.	.	4ff\	.	4ff\	.	4F\	.	.	8F/L	.	.
.	.	.	.	.	.	.	.	.	.	.	.	.	.	.	.	.	.	.	.	.	.	8e-/	.	.
4F\	-te	.	4F/	-te	.	.	4e-\	-te	.	.	4a\	-te	.	.	4ff\	.	4ff\	.	4r	.	.	8e-/	.	.
.	.	.	.	.	.	.	.	.	.	.	.	.	.	.	.	.	.	.	.	.	.	8e-/J	.	.
=15	=15	=15	=15	=15	=15	=15	=15	=15	=15	=15	=15	=15	=15	=15	=15	=15	=15	=15	=15	=15	=15	=15	=15	=15
!	!	!	!	!	!	!	!	!	!	!	!	!	!	!	!	!	!	!	!	!	!	!LO:TX:b:t=g:mod=	!	!
2B-\	Da-	.	2F/	Da-	.	.	2e-\	Da-	.	.	2b-\	Da-	.	.	2b-/	.	1ff	.	4BB-/	.	.	8F/L	.	1ryy
!	!	!	!	!	!	!	!	!	!	!	!	!	!	!	!	!	!	!	!	!	!	!LO:TX:b:t=e:mod=	!	!
.	.	.	.	.	.	.	.	.	.	.	.	.	.	.	.	.	.	.	.	.	.	8d/	.	.
!	!	!	!	!	!	!	!	!	!	!	!	!	!	!	!	!	!	!	!	!	!	!LO:TX:b:t=e:mod=	!	!
.	.	.	.	.	.	.	.	.	.	.	.	.	.	.	.	.	.	.	4B-\	.	.	8d/	.	.
!	!	!	!	!	!	!	!	!	!	!	!	!	!	!	!	!	!	!	!	!	!	!LO:TX:b:t=e:mod=	!	!
.	.	.	.	.	.	.	.	.	.	.	.	.	.	.	.	.	.	.	.	.	.	8d/J	.	.
!	!	!	!	!	!	!	!	!	!	!	!	!	!	!	!	!	!	!	!	!	!	!LO:TX:b:t=g:mod=	!	!
2F\	-vid	.	2An/	-vid	.	.	2f\	-vid	.	.	2cc\	-vid	.	.	2ff\	.	.	.	4F\	.	.	8F/L	.	.
.	.	.	.	.	.	.	.	.	.	.	.	.	.	.	.	.	.	.	.	.	.	8A-/	.	.
.	.	.	.	.	.	.	.	.	.	.	.	.	.	.	.	.	.	.	4FF/	.	.	8A-/	.	.
.	.	.	.	.	.	.	.	.	.	.	.	.	.	.	.	.	.	.	.	.	.	8A-/J	.	.
=16	=16	=16	=16	=16	=16	=16	=16	=16	=16	=16	=16	=16	=16	=16	=16	=16	=16	=16	=16	=16	=16	=16	=16	=16
!	!LO:MO:mod=cum	!	!	!LO:MO:mod=cum	!	!	!	!	!	!	!	!	!	!	!	!	!	!	!	!	!	!	!	!
4BB-/	Cum	.	4B-\	c(um)	.	.	4f\	cum	.	.	4dd\	cum	.	.	4b-/	.	4ff\	.	4BB-/	.	.	8B-/L	.	1ryy
.	.	.	.	.	.	.	.	.	.	.	.	.	.	.	.	.	.	.	.	.	.	8d/	.	.
!	!LO:MO:mod=Si-	!	!	!	!	!	!	!LO:MO:mod=Si-	!	!	!	!	!	!	!	!	!	!	!	!	!	!	!	!
4E-/	ſi-	.	4G/	Si-	.	.	8g\L	ſi-	.	.	8ee-\L	.	.	.	4ee-\	.	4gg\	.	4E-\	.	.	8g/	.	.
.	.	.	.	.	.	.	8e-\J	.	.	.	8cc\J	.	.	.	.	.	.	.	.	.	.	8e-/J	.	.
2F\	-bil-	.	2F/	-bil-	.	.	4d\	-bil-	.	.	4b-\	Si-	.	.	4ff\	.	4ff\	.	4F\	.	.	4d/	.	.
!	!	!	!	!	!	!	!	!	!	!	!LO:SIC:v:o=4a-\	!	!	!	!	!	!	!	!	!	!	!	!	!
.	.	.	.	.	.	.	4c\	.	.	.	4a	-bil-	.	.	4ff\	.	4ff\	.	4FF/	.	.	4c/	.	.
=17	=17	=17	=17	=17	=17	=17	=17	=17	=17	=17	=17	=17	=17	=17	=17	=17	=17	=17	=17	=17	=17	=17	=17	=17
2BB-/	-la	.	2F/	-la	.	.	2d\	-la	.	.	2b-\	-la	.	.	2b-/	.	2ff\	.	4BB-/	.	.	4d/	.	1ryy
.	.	.	.	.	.	.	.	.	.	.	.	.	.	.	.	.	.	.	4B-\	.	.	4r	.	.
2r	.	.	2r	.	.	.	2r	.	.	.	2r	.	.	.	2r	.	2r	.	4BB-/	.	.	8F/L	.	.
.	.	.	.	.	.	.	.	.	.	.	.	.	.	.	.	.	.	.	.	.	.	8d/	.	.
.	.	.	.	.	.	.	.	.	.	.	.	.	.	.	.	.	.	.	4r	.	.	8B-/	.	.
.	.	.	.	.	.	.	.	.	.	.	.	.	.	.	.	.	.	.	.	.	.	8d/J	.	.
=18	=18	=18	=18	=18	=18	=18	=18	=18	=18	=18	=18	=18	=18	=18	=18	=18	=18	=18	=18	=18	=18	=18	=18	=18
!LO:TX:a:t=2:mod=	!	!	!LO:TX:a:t=2:mod=	!	!	!	!LO:TX:a:t=2:mod=	!	!	!	!LO:TX:a:t=2:mod=	!	!	!	!	!	!	!LO:DY:a	!	!	!	!	!	!
!	!	!	!	!	!	!	!	!	!	!	!	!	!	!	!	!	!	!LO:MO:mod=.	!	!	!	!	!	!
0r	.	.	0r	.	.	.	0r	.	.	.	0r	.	.	.	4r	.	4r	p	4r	.	.	8F/L	.	1ryy
.	.	.	.	.	.	.	.	.	.	.	.	.	.	.	.	.	.	.	.	.	.	8c/	.	.
!	!	!	!	!	!	!	!	!	!	!	!	!	!	!	!	!LO:DY:a	!	!LO:MO:null:mod=p	!	!	!	!	!	!
.	.	.	.	.	.	.	.	.	.	.	.	.	.	.	4ff\	p	4ff\	.	4F\	.	.	8A/	.	.
.	.	.	.	.	.	.	.	.	.	.	.	.	.	.	.	.	.	.	.	.	.	8c/J	.	.
.	.	.	.	.	.	.	.	.	.	.	.	.	.	.	4ff\	.	4ff\	.	4FF/	.	.	8F/L	.	.
.	.	.	.	.	.	.	.	.	.	.	.	.	.	.	.	.	.	.	.	.	.	8c/	.	.
.	.	.	.	.	.	.	.	.	.	.	.	.	.	.	4r	.	4r	.	4r	.	.	8B-/	.	.
.	.	.	.	.	.	.	.	.	.	.	.	.	.	.	.	.	.	.	.	.	.	8b-/J	.	.
=19	=19	=19	=19	=19	=19	=19	=19	=19	=19	=19	=19	=19	=19	=19	=19	=19	=19	=19	=19	=19	=19	=19	=19	=19
.	.	.	.	.	.	.	.	.	.	.	.	.	.	.	4r	.	4r	.	4r	.	.	8F/L	.	1ryy
.	.	.	.	.	.	.	.	.	.	.	.	.	.	.	.	.	.	.	.	.	.	8c/	.	.
.	.	.	.	.	.	.	.	.	.	.	.	.	.	.	4b-/	.	4ff\	.	4B-\	.	.	8B-/	.	.
.	.	.	.	.	.	.	.	.	.	.	.	.	.	.	.	.	.	.	.	.	.	8b-/J	.	.
.	.	.	.	.	.	.	.	.	.	.	.	.	.	.	4b-/	.	4ff\	.	4BB-/	.	.	8dd\L	.	.
.	.	.	.	.	.	.	.	.	.	.	.	.	.	.	.	.	.	.	.	.	.	8ff\	.	.
.	.	.	.	.	.	.	.	.	.	.	.	.	.	.	4b-/	.	4ff\	.	4D/	.	.	8ff\	.	.
.	.	.	.	.	.	.	.	.	.	.	.	.	.	.	.	.	.	.	.	.	.	8ff\J	.	.
=20	=20	=20	=20	=20	=20	=20	=20	=20	=20	=20	=20	=20	=20	=20	=20	=20	=20	=20	=20	=20	=20	=20	=20	=20
*	*	*	*	*	*	*	*	*	*	*	*	*ij	*	*	*	*	*	*	*	*	*	*	*	*
!	!	!	!	!LO:MO:mod=cum	!	!	!	!LO:MO:mod=cum	!	!	!	!	!	!	!	!	!	!	!	!	!	!LO:TX:a:t=P:problem=mixed beam	!	!
4E-\	cum	p	4B-\	c(um)	.	p	4g\	Cum	.	p	8gg\L	cum	.	p	4ee-\	.	4gg\	.	4E-\	.	.	8ee-\L	.	1ryy
.	.	.	.	.	.	.	.	.	.	.	8ee-\J	.	.	.	.	.	.	.	.	.	.	8g\J	.	.
!	!	!	!	!	!	!	!	!LO:MO:mod=Si-	!	!	!	!	!	!	!	!	!	!	!	!	!	!	!	!
4E-\	Si-	.	4e-\	Si-	.	.	4g\	ſi-	.	.	8dd\L	Si-	.	.	4ee-\	.	4gg\	.	4E-\	.	.	8f/L	.	.
.	.	.	.	.	.	.	.	.	.	.	8cc\J	.	.	.	.	.	.	.	.	.	.	8e-/J	.	.
2F\	-bil-	.	4d\	-bil-	.	.	2f\	-bil-	.	.	4b-\	-bil-	.	.	4ff\	.	4ff\	.	4F\	.	.	4d/	.	.
.	.	.	4c\	.	.	.	.	.	.	.	4a-\	.	.	.	4ff\	.	4ff\	.	4FF/	.	.	4c/	.	.
=21	=21	=21	=21	=21	=21	=21	=21	=21	=21	=21	=21	=21	=21	=21	=21	=21	=21	=21	=21	=21	=21	=21	=21	=21
2BB-/	-la	.	2d\	-la	.	.	2f\	-la	.	.	2b-\	-la	.	.	2b-/	.	2ff\	.	4BB-/	.	.	2d/	.	1ryy
.	.	.	.	.	.	.	.	.	.	.	.	.	.	.	.	.	.	.	4B-\	.	.	.	.	.
*	*	*	*	*	*	*	*	*	*	*	*	*Xij	*	*	*	*	*	*	*	*	*	*	*	*
2r	.	.	2r	.	.	.	2r	.	.	.	2r	.	.	.	2r	.	2r	.	8B-\L	.	.	2r	.	.
.	.	.	.	.	.	.	.	.	.	.	.	.	.	.	.	.	.	.	8A-\	.	.	.	.	.
.	.	.	.	.	.	.	.	.	.	.	.	.	.	.	.	.	.	.	8G\	.	.	.	.	.
.	.	.	.	.	.	.	.	.	.	.	.	.	.	.	.	.	.	.	8F\J	.	.	.	.	.
=22||	=22||	=22||	=22||	=22||	=22||	=22||	=22||	=22||	=22||	=22||	=22||	=22||	=22||	=22||	=22||	=22||	=22||	=22||	=22||	=22||	=22||	=22||	=22||	=22||
!	!	!	!	!	!	!	!	!	!	!	!	!	!	!	!	!	!LO:MO:mod=!LO&colon;TX&colon;Bi&colon;a&colon;t=Quantus Tremor	!	!	!	!	!LO:MO:mod=!LO&colon;TX&colon;Bi&colon;a&colon;t=Quantus Tremor	!	!
!	!	!LO:DY:a	!	!	!	!	!	!	!	!	!	!	!	!	!LO:TX:a:Bi:t=Quantus Tremor.	!LO:DY:a	!LO:TX:b:Bi:t=Quantus	!LO:DY:a	!LO:TX:a:Bi:t=Quantus Tremor	!	!	!LO:TX:b:Bi:t=Quantus Tremor	!LO:DY:a	!
2E-\	Quan-	f	2B-\	Quan-	.	f	2g\	Quan-	.	f	2ee-\	Quan-	.	f	8.e-/L	f	8.ee-\L	f	8.E-\L	.	f	8.g/L	f	1ryy
.	.	.	.	.	.	.	.	.	.	.	.	.	.	.	16e-/K	.	16ee-\K	.	16E-\K	.	.	16g/Jk	.	.
.	.	.	.	.	.	.	.	.	.	.	.	.	.	.	8.e-/	.	8.ee-\	.	8.E-\	.	.	8.g/L	.	.
.	.	.	.	.	.	.	.	.	.	.	.	.	.	.	16e-/Jk	.	16ee-\Jk	.	16E-\Jk	.	.	16g/Jk	.	.
2E-\	-tus	.	2B-\	-tus	.	.	2g\	-tus	.	.	2ee-\	-tus	.	.	8.e-/L	.	8.ee-\L	.	8.E-\L	.	.	8.g/L	.	.
.	.	.	.	.	.	.	.	.	.	.	.	.	.	.	16e-/K	.	16ee-\K	.	16E-\K	.	.	16g/K	.	.
.	.	.	.	.	.	.	.	.	.	.	.	.	.	.	8.e-/	.	8.ee-\	.	8.E-\	.	.	8.g/	.	.
.	.	.	.	.	.	.	.	.	.	.	.	.	.	.	16e-/Jk	.	16ee-\Jk	.	16E-\Jk	.	.	16g/Jk	.	.
=23	=23	=23	=23	=23	=23	=23	=23	=23	=23	=23	=23	=23	=23	=23	=23	=23	=23	=23	=23	=23	=23	=23	=23	=23
!	!	!	!	!	!	!	!	!	!	!	!	!	!	!	!	!	!	!	!	!	!	!LO:MO:mod=!null:null	!	!
!	!	!	!	!	!	!	!	!	!	!	!	!	!	!	!	!	!	!	!	!	!	!LO:N:vis=8	!	!
2E-\	tre-	.	2B-\	tre-	.	.	2g\	tre-	.	.	2dd-X\	tre-	.	.	8.e-/L	.	8.ee-\L	.	8.E-\L	.	.	8.b-\L	.	1ryy
.	.	.	.	.	.	.	.	.	.	.	.	.	.	.	16e-/K	.	16ee-\K	.	16E-\K	.	.	16b-\K	.	.
!	!	!	!	!	!	!	!	!	!	!	!	!	!	!	!	!	!	!	!	!	!	!LO:MO:mod!null:null	!	!
!	!	!	!	!	!	!	!	!	!	!	!	!	!	!	!	!	!	!	!	!	!	!LO:N:vis=8	!	!
.	.	.	.	.	.	.	.	.	.	.	.	.	.	.	8.e-/	.	8.ee-\	.	8.E-\	.	.	8.b-\	.	.
.	.	.	.	.	.	.	.	.	.	.	.	.	.	.	16e-/Jk	.	16ee-\Jk	.	16E-\Jk	.	.	16b-\Jk	.	.
2E-\	-mor	.	2B-\	-mor	.	.	2g\	-mor	.	.	2dd-\	-mur	.	.	8.e-/L	.	8.ee-\L	.	8.E-\L	.	.	8.b-\L	.	.
.	.	.	.	.	.	.	.	.	.	.	.	.	.	.	16e-/K	.	16ee-\K	.	16E-\K	.	.	16b-\K	.	.
.	.	.	.	.	.	.	.	.	.	.	.	.	.	.	8.e-/	.	8.ee-\	.	8.E-\	.	.	8.b-\	.	.
.	.	.	.	.	.	.	.	.	.	.	.	.	.	.	16e-/Jk	.	16ee-\Jk	.	16E-\Jk	.	.	16b-\Jk	.	.
=24	=24	=24	=24	=24	=24	=24	=24	=24	=24	=24	=24	=24	=24	=24	=24	=24	=24	=24	=24	=24	=24	=24	=24	=24
!	!	!	!	!	!	!	!	!	!	!	!	!	!	!	!	!	!	!	!LO:TX:a:t=P:problem=mixed beam	!	!	!	!	!
2.A-\	eſt	.	2.A-\	eſt	.	.	2.e-\	eſt	.	.	2.cc\	eſt	.	.	8.e-/L	.	8.ee-\L	.	8.A-\L	.	.	8.a-/L	.	1ryy
.	.	.	.	.	.	.	.	.	.	.	.	.	.	.	16e-/K	.	16ee-\K	.	16AA-\K	.	.	16e-/K	.	.
.	.	.	.	.	.	.	.	.	.	.	.	.	.	.	8.e-/	.	8.ee-\	.	8.AA-\	.	.	8.e-/	.	.
.	.	.	.	.	.	.	.	.	.	.	.	.	.	.	16e-/Jk	.	16ee-\Jk	.	16AA-\Jk	.	.	16e-/Jk	.	.
!	!	!	!	!	!	!	!	!	!	!	!	!	!	!	!	!	!	!	!LO:TX:a:t=P:problem=mixed beam	!	!	!	!	!
.	.	.	.	.	.	.	.	.	.	.	.	.	.	.	8.e-/L	.	8.ee-\L	.	8.A-\L	.	.	8.e-/L	.	.
.	.	.	.	.	.	.	.	.	.	.	.	.	.	.	16e-/K	.	16ee-\K	.	16AA-\K	.	.	16e-/K	.	.
4AA-/	fu-	.	4A-\	fu-	.	.	4e-\	Fu-	.	.	4cc\	fu-	.	.	8.e-/	.	8.ee-\	.	8.AA-\	.	.	8.e-/	.	.
.	.	.	.	.	.	.	.	.	.	.	.	.	.	.	16e-/Jk	.	16ee-\Jk	.	16AA-\Jk	.	.	16e-/Jk	.	.
=25	=25	=25	=25	=25	=25	=25	=25	=25	=25	=25	=25	=25	=25	=25	=25	=25	=25	=25	=25	=25	=25	=25	=25	=25
1E-	-tu-	.	1B-	-tu-	.	.	1g	-tu-	.	.	1dd-X	-tu-	.	.	8.e-/L	.	8.ee-\L	.	8.E-\L	.	.	8.e-/L	.	1ryy
.	.	.	.	.	.	.	.	.	.	.	.	.	.	.	16e-/K	.	16ee-\K	.	16E-\K	.	.	16b-/K	.	.
.	.	.	.	.	.	.	.	.	.	.	.	.	.	.	8.e-/	.	8.ee-\	.	8.E-\	.	.	8.b-/	.	.
.	.	.	.	.	.	.	.	.	.	.	.	.	.	.	16e-/Jk	.	16ee-\Jk	.	16E-\Jk	.	.	16b-/Jk	.	.
.	.	.	.	.	.	.	.	.	.	.	.	.	.	.	8.e-/L	.	8.ee-\L	.	8.E-\L	.	.	8.b-\L	.	.
.	.	.	.	.	.	.	.	.	.	.	.	.	.	.	16e-/K	.	16ee-\K	.	16E-\K	.	.	16b-\K	.	.
.	.	.	.	.	.	.	.	.	.	.	.	.	.	.	8.e-/	.	8.ee-\	.	8.E-\	.	.	8.b-\	.	.
.	.	.	.	.	.	.	.	.	.	.	.	.	.	.	16e-/Jk	.	16ee-\Jk	.	16E-\Jk	.	.	16b-\Jk	.	.
=26	=26	=26	=26	=26	=26	=26	=26	=26	=26	=26	=26	=26	=26	=26	=26	=26	=26	=26	=26	=26	=26	=26	=26	=26
2AA-/	-rus	.	2A-\	-rus	.	.	2a-\	-rus	.	.	2cc\	-rus	.	.	8.e-/L	.	8.ee-\L	.	8A-\L	.	.	8.a-\L	.	1ryy
.	.	.	.	.	.	.	.	.	.	.	.	.	.	.	.	.	.	.	8A-\	.	.	.	.	.
.	.	.	.	.	.	.	.	.	.	.	.	.	.	.	16e-/K	.	16ee-\K	.	.	.	.	16a-\K	.	.
.	.	.	.	.	.	.	.	.	.	.	.	.	.	.	8.e-/	.	8.ee-\	.	8E-\	.	.	8.a-\	.	.
.	.	.	.	.	.	.	.	.	.	.	.	.	.	.	.	.	.	.	8C\J	.	.	.	.	.
.	.	.	.	.	.	.	.	.	.	.	.	.	.	.	16e-/Jk	.	16ee-\Jk	.	.	.	.	16a-\Jk	.	.
2r	.	.	2r	.	.	.	2r	.	.	.	2r	.	.	.	8.e-/L	.	2ee-\	.	2AA-/	.	.	2a-\	.	.
.	.	.	.	.	.	.	.	.	.	.	.	.	.	.	16e-/K	.	.	.	.	.	.	.	.	.
.	.	.	.	.	.	.	.	.	.	.	.	.	.	.	8.e-/	.	.	.	.	.	.	.	.	.
.	.	.	.	.	.	.	.	.	.	.	.	.	.	.	16e-/Jk	.	.	.	.	.	.	.	.	.
=27	=27	=27	=27	=27	=27	=27	=27	=27	=27	=27	=27	=27	=27	=27	=27	=27	=27	=27	=27	=27	=27	=27	=27	=27
!	!LO:MO:mod=Quan-	!	!	!	!	!	!	!	!	!	!	!	!	!	!	!	!	!	!LO:TX:a:t=P:problem=mixed beam	!	!	!	!	!
2F\	Qan-	.	2c\	Quan-	.	.	2an\	Quan-	.	.	2ff\	Quan-	.	.	8.ff\L	.	8.ff\L	.	8.FF/L	.	.	8.a\L	.	1ryy
.	.	.	.	.	.	.	.	.	.	.	.	.	.	.	16ff\K	.	16ff\K	.	16F/K	.	.	16a\K	.	.
.	.	.	.	.	.	.	.	.	.	.	.	.	.	.	8.ff\	.	8.ff\	.	8.F/	.	.	8.a\	.	.
.	.	.	.	.	.	.	.	.	.	.	.	.	.	.	16ff\Jk	.	16ff\Jk	.	16F/Jk	.	.	16a\Jk	.	.
2F\	-do	.	2c\	-do	.	.	2a\	-do	.	.	2ff\	-do	.	.	8.ff\L	.	8.ff\L	.	8.F\L	.	.	8.a\L	.	.
.	.	.	.	.	.	.	.	.	.	.	.	.	.	.	16ff\K	.	16ff\K	.	16F\K	.	.	16a\K	.	.
.	.	.	.	.	.	.	.	.	.	.	.	.	.	.	8.ff\	.	8.ff\	.	8.F\	.	.	8.a\	.	.
.	.	.	.	.	.	.	.	.	.	.	.	.	.	.	16ff\Jk	.	16ff\Jk	.	16F\Jk	.	.	16a\Jk	.	.
=28	=28	=28	=28	=28	=28	=28	=28	=28	=28	=28	=28	=28	=28	=28	=28	=28	=28	=28	=28	=28	=28	=28	=28	=28
2F\	Ju-	.	2c\	ju-	.	.	2a-\	Ju-	.	.	2ee-\	ju-	.	.	8.ff\L	.	8.ff\L	.	8.F\L	.	.	8.cc\L	.	1ryy
.	.	.	.	.	.	.	.	.	.	.	.	.	.	.	16ff\K	.	16ff\K	.	16F\K	.	.	16cc\K	.	.
.	.	.	.	.	.	.	.	.	.	.	.	.	.	.	8.ff\	.	8.ff\	.	8.F\	.	.	8.cc\	.	.
.	.	.	.	.	.	.	.	.	.	.	.	.	.	.	16ff\Jk	.	16ff\Jk	.	16F\Jk	.	.	16cc\Jk	.	.
2F\	-dex	.	2c\	-dex	.	.	2a-\	-dex	.	.	2ee-\	-dex	.	.	8.ff\L	.	8.ff\L	.	8.F\L	.	.	8.cc\L	.	.
.	.	.	.	.	.	.	.	.	.	.	.	.	.	.	16ff\K	.	16ff\K	.	16F\K	.	.	16cc\K	.	.
.	.	.	.	.	.	.	.	.	.	.	.	.	.	.	8.ff\	.	8.ff\	.	8.F\	.	.	8.cc\	.	.
.	.	.	.	.	.	.	.	.	.	.	.	.	.	.	16ff\Jk	.	16ff\Jk	.	16F\Jk	.	.	16cc\Jk	.	.
=29	=29	=29	=29	=29	=29	=29	=29	=29	=29	=29	=29	=29	=29	=29	=29	=29	=29	=29	=29	=29	=29	=29	=29	=29
!	!	!	!	!	!	!	!	!	!	!	!	!	!	!	!	!	!	!	!LO:TX:a:t=P:problem=mixed beam	!	!	!LO:TX:a:t=P:problem=mixed beam	!	!
2.B-\	eſt	.	2.B-\	eſt	.	.	2.f\	eſt	.	.	2.dd\	eſt	.	.	8.ff\L	.	8.ff\L	.	8.B-\L	.	.	8.b-/L	.	1ryy
.	.	.	.	.	.	.	.	.	.	.	.	.	.	.	16ff\K	.	16ff\K	.	16BB-\K	.	.	16f/K	.	.
.	.	.	.	.	.	.	.	.	.	.	.	.	.	.	8.ff\	.	8.ff\	.	8.BB-\	.	.	8.f/	.	.
.	.	.	.	.	.	.	.	.	.	.	.	.	.	.	16ff\Jk	.	16ff\Jk	.	16BB-\Jk	.	.	16f/Jk	.	.
.	.	.	.	.	.	.	.	.	.	.	.	.	.	.	8.ff\L	.	8.ff\L	.	8.BB-/L	.	.	8.f/L	.	.
.	.	.	.	.	.	.	.	.	.	.	.	.	.	.	16ff\K	.	16ff\K	.	16BB-/K	.	.	16f/K	.	.
4BB-/	ven-	.	4B-\	ven-	.	.	4f\	ven-	.	.	4dd\	ven-	.	.	8.ff\	.	8.ff\	.	8.BB-/	.	.	8.f/	.	.
.	.	.	.	.	.	.	.	.	.	.	.	.	.	.	16ff\Jk	.	16ff\Jk	.	16BB-/Jk	.	.	16f/Jk	.	.
=30	=30	=30	=30	=30	=30	=30	=30	=30	=30	=30	=30	=30	=30	=30	=30	=30	=30	=30	=30	=30	=30	=30	=30	=30
1F	-tu-	.	1c	-tu-	.	.	1a-	-tu-	.	.	1ee-	-tu-	.	.	8.ff\L	.	8.ff\L	.	8.F\L	.	.	8.cc\L	.	1ryy
.	.	.	.	.	.	.	.	.	.	.	.	.	.	.	16ff\K	.	16ff\K	.	16F\K	.	.	16cc\K	.	.
.	.	.	.	.	.	.	.	.	.	.	.	.	.	.	8.ff\	.	8.ff\	.	8.F\	.	.	8.cc\	.	.
.	.	.	.	.	.	.	.	.	.	.	.	.	.	.	16ff\Jk	.	16ff\Jk	.	16F\Jk	.	.	16cc\Jk	.	.
.	.	.	.	.	.	.	.	.	.	.	.	.	.	.	8.ff\L	.	8.ff\L	.	8.F\L	.	.	8.cc\L	.	.
.	.	.	.	.	.	.	.	.	.	.	.	.	.	.	16ff\K	.	16ff\K	.	16F\K	.	.	16cc\K	.	.
.	.	.	.	.	.	.	.	.	.	.	.	.	.	.	8.ff\	.	8.ff\	.	8.F\	.	.	8.cc\	.	.
.	.	.	.	.	.	.	.	.	.	.	.	.	.	.	16ff\Jk	.	16ff\Jk	.	16F\Jk	.	.	16cc\Jk	.	.
=31	=31	=31	=31	=31	=31	=31	=31	=31	=31	=31	=31	=31	=31	=31	=31	=31	=31	=31	=31	=31	=31	=31	=31	=31
!	!	!	!	!	!	!	!	!	!	!	!	!	!	!	!	!	!	!	!LO:TX:a:t=P:problem=mixed beam	!	!	!	!	!
2BB-/	-rus	.	2B-\	-rus	.	.	2b-\	-rus	.	.	2dd\	-rus	.	.	8.ff\L	.	8.ff\L	.	8.B-\L	.	.	8.b-\L	.	1ryy
.	.	.	.	.	.	.	.	.	.	.	.	.	.	.	16ff\K	.	16ff\K	.	16BB-\K	.	.	16f\K	.	.
.	.	.	.	.	.	.	.	.	.	.	.	.	.	.	8.ff\	.	8.ff\	.	8.BB-\	.	.	8.f\	.	.
.	.	.	.	.	.	.	.	.	.	.	.	.	.	.	16ff\Jk	.	16ff\Jk	.	16BB-\Jk	.	.	16f\Jk	.	.
!	!	!	!	!	!	!	!	!	!	!	!	!	!	!	!	!	!	!	!LO:TX:a:t=P:problem=mixed beam	!	!	!	!	!
2r	.	.	2r	.	.	.	2r	.	.	.	2r	.	.	.	8.ff\L	.	8.ff\L	.	8.B-\L	.	.	8.f/L	.	.
.	.	.	.	.	.	.	.	.	.	.	.	.	.	.	16ff\K	.	16ff\K	.	16BB-\K	.	.	16f/K	.	.
.	.	.	.	.	.	.	.	.	.	.	.	.	.	.	8.ff\	.	8.ff\	.	8.BB-\	.	.	8.f/	.	.
.	.	.	.	.	.	.	.	.	.	.	.	.	.	.	16ff\Jk	.	16ff\Jk	.	16BB-\Jk	.	.	16f/Jk	.	.
=32	=32	=32	=32	=32	=32	=32	=32	=32	=32	=32	=32	=32	=32	=32	=32	=32	=32	=32	=32	=32	=32	=32	=32	=32
2r	.	.	2r	.	.	.	2r	.	.	.	2r	.	.	.	8.ff\L	.	8.ff\L	.	8.D\L	.	.	8.a-X/L	.	1ryy
.	.	.	.	.	.	.	.	.	.	.	.	.	.	.	16ff\K	.	16ff\K	.	16D\K	.	.	16f/K	.	.
.	.	.	.	.	.	.	.	.	.	.	.	.	.	.	8.ff\	.	8.ff\	.	8.D\	.	.	8.f/	.	.
.	.	.	.	.	.	.	.	.	.	.	.	.	.	.	16ff\Jk	.	16ff\Jk	.	16D\Jk	.	.	16f/Jk	.	.
4D\	cun-	.	4B-\	cun-	.	.	4a-X\	cun-	.	.	4ff\	cun-	.	.	8.ff\L	.	8.ff\L	.	8.D\L	.	.	8f/L	.	.
.	.	.	.	.	.	.	.	.	.	.	.	.	.	.	.	.	.	.	.	.	.	8f/	.	.
.	.	.	.	.	.	.	.	.	.	.	.	.	.	.	16ff\K	.	16ff\K	.	16D\K	.	.	.	.	.
4D\	-cta	.	4B-\	-cta	.	.	4a-\	-cta	.	.	4ff\	-cta	.	.	8.ff\	.	8.ff\	.	8.D\	.	.	8f/	.	.
.	.	.	.	.	.	.	.	.	.	.	.	.	.	.	.	.	.	.	.	.	.	8f/J	.	.
.	.	.	.	.	.	.	.	.	.	.	.	.	.	.	16ff\Jk	.	16ff\Jk	.	16D\Jk	.	.	.	.	.
=33	=33	=33	=33	=33	=33	=33	=33	=33	=33	=33	=33	=33	=33	=33	=33	=33	=33	=33	=33	=33	=33	=33	=33	=33
*	*	*	*	*	*	*	*	*	*	*	*	*ij	*	*	*	*	*	*	*	*	*	*	*	*
2E-\	stri-	.	2B-\	ſtri-	.	.	2g\	stri-	.	.	2ee-\	cun-	.	.	8.g/L	.	8ee-\L	.	8.E-\L	.	.	8.e-/L	.	1ryy
.	.	.	.	.	.	.	.	.	.	.	.	.	.	.	.	.	8gg\	.	.	.	.	.	.	.
.	.	.	.	.	.	.	.	.	.	.	.	.	.	.	16ee-/K	.	.	.	16E-\K	.	.	16g/K	.	.
.	.	.	.	.	.	.	.	.	.	.	.	.	.	.	8.ee-/	.	8gg\	.	8.E-\	.	.	8.g/	.	.
.	.	.	.	.	.	.	.	.	.	.	.	.	.	.	.	.	8gg\J	.	.	.	.	.	.	.
.	.	.	.	.	.	.	.	.	.	.	.	.	.	.	16ee-/Jk	.	.	.	16E-\Jk	.	.	16g/Jk	.	.
!	!LO:MO:null:mod=-cta	!	!	!LO:MO:null:mod=-cta	!	!	!	!LO:MO:null:mod=-cta	!	!	!	!	!	!	!	!	!	!	!	!	!	!	!	!
2E-\	-cte	.	2B-\	-cte	.	.	2g\	-cte	.	.	2ee-\	-cta	.	.	8.ee-\L	.	8.ee-\L	.	8.E-\L	.	.	8.g/L	.	.
.	.	.	.	.	.	.	.	.	.	.	.	.	.	.	16ee-\K	.	16gg\K	.	16E-\K	.	.	16g/K	.	.
.	.	.	.	.	.	.	.	.	.	.	.	.	.	.	8.ee-\	.	8.gg\	.	8.E-\	.	.	8.g/	.	.
.	.	.	.	.	.	.	.	.	.	.	.	.	.	.	16ee-\Jk	.	16gg\Jk	.	16E-\Jk	.	.	16g/Jk	.	.
*	*	*	*	*	*	*	*	*	*	*	*	*Xij	*	*	*	*	*	*	*	*	*	*	*	*
=34	=34	=34	=34	=34	=34	=34	=34	=34	=34	=34	=34	=34	=34	=34	=34	=34	=34	=34	=34	=34	=34	=34	=34	=34
2r	.	.	2r	.	.	.	2r	.	.	.	2r	.	.	.	8.b-/L	.	8.ff\L	.	8.D\L	.	.	8.a-/L	.	1ryy
.	.	.	.	.	.	.	.	.	.	.	.	.	.	.	16b-/K	.	16ff\K	.	16D\K	.	.	16f/K	.	.
.	.	.	.	.	.	.	.	.	.	.	.	.	.	.	8.b-/	.	8.ff\	.	8.D\	.	.	8.f/	.	.
.	.	.	.	.	.	.	.	.	.	.	.	.	.	.	16b-/Jk	.	16ff\Jk	.	16D\Jk	.	.	16f/Jk	.	.
!	!	!	!	!LO:MO:null:mod=dis-	!	!	!	!	!	!	!	!	!	!	!	!	!	!	!	!	!	!	!	!
4D\	diſ-	.	4B-\	Dis-	.	.	4a-\	diſ-	.	.	4ff\	dis-	.	.	8.b-/L	.	8.ff\L	.	8.D\L	.	.	8.f/L	.	.
.	.	.	.	.	.	.	.	.	.	.	.	.	.	.	16b-/K	.	16ff\K	.	16D\Jk	.	.	16f/K	.	.
4D\	-cuſ-	.	4B-\	-cu-	.	.	4a-\	-cu-	.	.	4ff\	-cu-	.	.	8.b-/	.	8.ff\	.	8.D\L	.	.	8.f/	.	.
.	.	.	.	.	.	.	.	.	.	.	.	.	.	.	16b-/Jk	.	16ff\Jk	.	16D\Jk	.	.	16f/Jk	.	.
=35	=35	=35	=35	=35	=35	=35	=35	=35	=35	=35	=35	=35	=35	=35	=35	=35	=35	=35	=35	=35	=35	=35	=35	=35
2E-\	-su-	.	2B-\	-ſu-	.	.	2g\	-su-	.	.	2ee-\	-ſu-	.	.	8.ee-\L	.	8.gg\L	.	8.E-\L	.	.	8.e-/L	.	1ryy
.	.	.	.	.	.	.	.	.	.	.	.	.	.	.	16ee-\K	.	16gg\K	.	16E-\K	.	.	16g/K	.	.
.	.	.	.	.	.	.	.	.	.	.	.	.	.	.	8.ee-\	.	8.gg\	.	8.E-\	.	.	8.g/	.	.
.	.	.	.	.	.	.	.	.	.	.	.	.	.	.	16ee-\Jk	.	16gg\Jk	.	16E-\Jk	.	.	16g/Jk	.	.
2E-\	-rus	.	2B-\	-rus	.	.	2g\	-rus	.	.	2ee-\	-rus	.	.	8.ee-\L	.	8.gg\L	.	8.E-\L	.	.	8.g/L	.	.
.	.	.	.	.	.	.	.	.	.	.	.	.	.	.	16ee-\K	.	16gg\K	.	16E-\K	.	.	16g/K	.	.
.	.	.	.	.	.	.	.	.	.	.	.	.	.	.	8.ee-\	.	8.gg\	.	8.E-\	.	.	8.g/	.	.
.	.	.	.	.	.	.	.	.	.	.	.	.	.	.	16ee-\Jk	.	16gg\Jk	.	16E-\Jk	.	.	16g/Jk	.	.
=36	=36	=36	=36	=36	=36	=36	=36	=36	=36	=36	=36	=36	=36	=36	=36	=36	=36	=36	=36	=36	=36	=36	=36	=36
2r	.	.	2r	.	.	.	2r	.	.	.	2r	.	.	.	8.ff\L	.	8.ff\L	.	8.A-\L	.	.	8.f/L	.	1ryy
.	.	.	.	.	.	.	.	.	.	.	.	.	.	.	16ff\K	.	16ff\K	.	16A-\K	.	.	16f/K	.	.
.	.	.	.	.	.	.	.	.	.	.	.	.	.	.	8.ff\	.	8.ff\	.	8.A-\	.	.	8.f/	.	.
.	.	.	.	.	.	.	.	.	.	.	.	.	.	.	16ff\Jk	.	16ff\Jk	.	16A-\Jk	.	.	16f/Jk	.	.
*	*ij	*	*	*ij	*	*	*	*ij	*	*	*	*ij	*	*	*	*	*	*	*	*	*	*	*	*
!	!	!	!	!LO:MO:null:mod=dis-	!	!	!	!	!	!	!	!	!	!	!	!	!	!	!	!	!	!	!	!
4An\	diſ-	.	4c\	Dis-	.	.	4f\	diſ-	.	.	4ee-\	dis-	.	.	8.ff\L	.	8.ff\L	.	8.An\L	.	.	8.f/L	.	.
.	.	.	.	.	.	.	.	.	.	.	.	.	.	.	16ff\K	.	16ff\K	.	16A\K	.	.	16f/K	.	.
4A\	-cuſ-	.	4c\	-cu-	.	.	4f\	-cu-	.	.	4ee-\	-cu-	.	.	8.ff\	.	8.ff\	.	8.A\	.	.	8.f/	.	.
.	.	.	.	.	.	.	.	.	.	.	.	.	.	.	16ff\Jk	.	16ff\Jk	.	16A\Jk	.	.	16f/Jk	.	.
=37	=37	=37	=37	=37	=37	=37	=37	=37	=37	=37	=37	=37	=37	=37	=37	=37	=37	=37	=37	=37	=37	=37	=37	=37
2B-\	-su-	.	1B-	-ſu-	.	.	2g\	-su-	.	.	2ee-\	-ſu-	.	.	8.ee-\L	.	8.gg\L	.	8.B-\L	.	.	8.g/L	.	1ryy
.	.	.	.	.	.	.	.	.	.	.	.	.	.	.	16ee-\K	.	16gg\K	.	16B-\K	.	.	16g/K	.	.
.	.	.	.	.	.	.	.	.	.	.	.	.	.	.	8.ee-\	.	8.gg\	.	8.B-\	.	.	8.g/	.	.
.	.	.	.	.	.	.	.	.	.	.	.	.	.	.	16ee-\Jk	.	16gg\Jk	.	16B-\Jk	.	.	16g/Jk	.	.
2BB-/	.	.	.	.	.	.	2f\	.	.	.	2dd\	.	.	.	8.b-/L	.	8.ff\L	.	8.BB-/L	.	.	8.f/L	.	.
.	.	.	.	.	.	.	.	.	.	.	.	.	.	.	16b-/K	.	16ff\K	.	16BB-/K	.	.	16f/K	.	.
.	.	.	.	.	.	.	.	.	.	.	.	.	.	.	8.b-/	.	8.ff\	.	8.BB-/	.	.	8.f/	.	.
.	.	.	.	.	.	.	.	.	.	.	.	.	.	.	16b-/Jk	.	16ff\Jk	.	16BB-/Jk	.	.	16f/Jk	.	.
=38	=38	=38	=38	=38	=38	=38	=38	=38	=38	=38	=38	=38	=38	=38	=38	=38	=38	=38	=38	=38	=38	=38	=38	=38
2E-\	-rus	.	2B-\	-rus	.	.	2g\	-rus	.	.	2ee-\	-rus	.	.	4ee-\	.	4gg\	.	4E-\	.	.	2g/	.	1ryy
.	.	.	.	.	.	.	.	.	.	.	.	.	.	.	4r	.	4r	.	4EE-/	.	.	.	.	.
*	*Xij	*	*	*Xij	*	*	*	*Xij	*	*	*	*Xij	*	*	*	*	*	*	*	*	*	*	*	*
2r	.	.	2r	.	.	.	2r	.	.	.	2r	.	.	.	8gg\L	.	8bb-\L	.	2r	.	.	2r	.	.
.	.	.	.	.	.	.	.	.	.	.	.	.	.	.	8ee-\	.	8gg\	.	.	.	.	.	.	.
.	.	.	.	.	.	.	.	.	.	.	.	.	.	.	8gg\	.	8bb-\	.	.	.	.	.	.	.
.	.	.	.	.	.	.	.	.	.	.	.	.	.	.	8ee-\J	.	8gg\J	.	.	.	.	.	.	.
=39	=39	=39	=39	=39	=39	=39	=39	=39	=39	=39	=39	=39	=39	=39	=39	=39	=39	=39	=39	=39	=39	=39	=39	=39
!LO:TX:a:t=4:mod=	!	!	!LO:TX:a:t=4:mod=	!	!	!	!LO:TX:a:t=4:mod=	!	!	!	!LO:TX:a:t=4:mod=	!	!	!	!	!	!	!	!	!	!	!	!	!
00r	.	.	00r	.	.	.	00r	.	.	.	00r	.	.	.	2ee-\	.	2gg\	.	4r	.	.	4r	.	1ryy
.	.	.	.	.	.	.	.	.	.	.	.	.	.	.	.	.	.	.	4BB-/	.	.	4g/	.	.
.	.	.	.	.	.	.	.	.	.	.	.	.	.	.	8b-/L	.	8ff\L	.	4B-\	.	.	8f/L	.	.
.	.	.	.	.	.	.	.	.	.	.	.	.	.	.	8ee-/J	.	8gg\	.	.	.	.	8g/	.	.
.	.	.	.	.	.	.	.	.	.	.	.	.	.	.	8ff\L	.	8aa-\	.	4BB-/	.	.	8a-/	.	.
.	.	.	.	.	.	.	.	.	.	.	.	.	.	.	8b-\J	.	8ff\J	.	.	.	.	8f/J	.	.
=40	=40	=40	=40	=40	=40	=40	=40	=40	=40	=40	=40	=40	=40	=40	=40	=40	=40	=40	=40	=40	=40	=40	=40	=40
.	.	.	.	.	.	.	.	.	.	.	.	.	.	.	4ee-\	.	4gg\	.	4E-\	.	.	4g/	.	1ryy
.	.	.	.	.	.	.	.	.	.	.	.	.	.	.	4r	.	4r	.	4EE-/	.	.	4g/	.	.
.	.	.	.	.	.	.	.	.	.	.	.	.	.	.	8gg\L	.	8bb-\L	.	2r	.	.	2r	.	.
.	.	.	.	.	.	.	.	.	.	.	.	.	.	.	8ee-\	.	8gg\	.	.	.	.	.	.	.
.	.	.	.	.	.	.	.	.	.	.	.	.	.	.	8gg\	.	8bb-\	.	.	.	.	.	.	.
.	.	.	.	.	.	.	.	.	.	.	.	.	.	.	8ee-\J	.	8gg\J	.	.	.	.	.	.	.
=41	=41	=41	=41	=41	=41	=41	=41	=41	=41	=41	=41	=41	=41	=41	=41	=41	=41	=41	=41	=41	=41	=41	=41	=41
.	.	.	.	.	.	.	.	.	.	.	.	.	.	.	2ee-\	.	2gg\	.	4r	.	.	4r	.	1ryy
.	.	.	.	.	.	.	.	.	.	.	.	.	.	.	.	.	.	.	4BB-/	.	.	4g/	.	.
.	.	.	.	.	.	.	.	.	.	.	.	.	.	.	8b-/L	.	8ff\L	.	4A-\	.	.	8f/L	.	.
.	.	.	.	.	.	.	.	.	.	.	.	.	.	.	8ee-/J	.	8gg\	.	.	.	.	8g/	.	.
.	.	.	.	.	.	.	.	.	.	.	.	.	.	.	8ff\L	.	8aa-\	.	4BB-/	.	.	8a-/	.	.
.	.	.	.	.	.	.	.	.	.	.	.	.	.	.	8b-\J	.	8ff\J	.	.	.	.	8f/J	.	.
=42	=42	=42	=42	=42	=42	=42	=42	=42	=42	=42	=42	=42	=42	=42	=42	=42	=42	=42	=42	=42	=42	=42	=42	=42
.	.	.	.	.	.	.	.	.	.	.	.	.	.	.	4ee-\	.	4gg\	.	4E-\	.	.	4g/	.	1ryy
.	.	.	.	.	.	.	.	.	.	.	.	.	.	.	4ee-\	.	4gg\	.	4EE-/	.	.	4g/	.	.
.	.	.	.	.	.	.	.	.	.	.	.	.	.	.	4ee-\	.	4gg\	.	4E-\	.	.	4g/	.	.
.	.	.	.	.	.	.	.	.	.	.	.	.	.	.	4r	.	4r	.	4r	.	.	4r	.	.
=43||	=43||	=43||	=43||	=43||	=43||	=43||	=43||	=43||	=43||	=43||	=43||	=43||	=43||	=43||	=43||	=43||	=43||	=43||	=43||	=43||	=43||	=43||	=43||	=43||
!	!	!	!	!	!	!	!	!	!	!	!	!	!	!	!LO:TX:a:t=4.:mod=	!	!LO:MO:null:mod=!LO&colon;TX&colon;Bi&colon;a&colon;t=Tuba Mirum	!	!	!	!	!LO:TX:a:t=4:mod=	!	!
!	!	!	!	!	!	!	!	!	!	!	!	!	!	!	!LO:MO:mod=!LO&colon;TX&colon;Bi&colon;a&colon;t=Tuba Mirum	!	!	!	!	!	!	!	!	!
!	!	!	!	!	!	!	!	!	!	!	!	!	!	!	!LO:TX:a:Bi:t=Tuba mirum	!	!LO:TX:a:t=4.:mod=	!	!LO:TX:a:Bi:t=Tuba Mirum	!	!	!LO:TX:a:Bi:t=Tuba Mirum	!	!
2E-\	Tu-	.	2B-\	Tu-	.	.	2g\	Tu-	.	.	2ee-\	Tu-	.	.	1r	.	1r	.	2E-\	.	.	1r	.	1ryy
2E-\	-ba	.	2B-\	-ba	.	.	2g\	-ba	.	.	2ee-\	-ba	.	.	.	.	.	.	2r	.	.	.	.	.
=44	=44	=44	=44	=44	=44	=44	=44	=44	=44	=44	=44	=44	=44	=44	=44	=44	=44	=44	=44	=44	=44	=44	=44	=44
2E-\	Mi-	.	2B-\	mi-	.	.	2g\	mi-	.	.	4.ee-\	mi-	.	.	1r	.	1r	.	2EE-/	.	.	1r	.	1ryy
.	.	.	.	.	.	.	.	.	.	.	16gg\LL	.	.	.	.	.	.	.	.	.	.	.	.	.
.	.	.	.	.	.	.	.	.	.	.	16ff\JJ	.	.	.	.	.	.	.	.	.	.	.	.	.
!	!	!	!	!LO:MO:mod=-rum	!	!	!	!	!	!	!	!	!	!	!	!	!	!	!	!	!	!	!	!
4E-\	-rum	.	4B-\	-r(um)	.	.	4g\	-rum	.	.	4ee-\	-rum	.	.	.	.	.	.	2r	.	.	.	.	.
4r	.	.	4r	.	.	.	4r	.	.	.	4r	.	.	.	.	.	.	.	.	.	.	.	.	.
=45	=45	=45	=45	=45	=45	=45	=45	=45	=45	=45	=45	=45	=45	=45	=45	=45	=45	=45	=45	=45	=45	=45	=45	=45
2E-\	ſpar-	.	2c\	spar-	.	.	2a-\	spa-	.	.	2cc\	spar-	.	.	1r	.	1r	.	2E-\	.	.	1r	.	1ryy
2E-\	-get	.	2B-\	-get	.	.	2f\	-get	.	.	4dd\	.	.	.	.	.	.	.	4r	.	.	.	.	.
.	.	.	.	.	.	.	.	.	.	.	8cc\L	-get	.	.	.	.	.	.	4BB-/	.	.	.	.	.
.	.	.	.	.	.	.	.	.	.	.	8dd\J	.	.	.	.	.	.	.	.	.	.	.	.	.
=46	=46	=46	=46	=46	=46	=46	=46	=46	=46	=46	=46	=46	=46	=46	=46	=46	=46	=46	=46	=46	=46	=46	=46	=46
!	!	!	!	!LO:MO:mod=so-	!	!	!	!	!	!	!	!	!	!	!	!	!	!	!	!	!	!	!	!
2E-\	ſo-	.	2B-\	So-	.	.	2g\	so-	.	.	2ee-\	so-	.	.	1r	.	1r	.	4E-\	.	.	1r	.	1ryy
.	.	.	.	.	.	.	.	.	.	.	.	.	.	.	.	.	.	.	4EE-/	.	.	.	.	.
!	!	!	!	!LO:MO:mod=-num	!	!	!	!	!	!	!	!	!	!	!	!	!	!	!	!	!	!	!	!
2E-\	-num	.	2B-\	-n(um)	.	.	2g\	-num	.	.	2ee-\	-num	.	.	.	.	.	.	2E-\	.	.	.	.	.
=47	=47	=47	=47	=47	=47	=47	=47	=47	=47	=47	=47	=47	=47	=47	=47	=47	=47	=47	=47	=47	=47	=47	=47	=47
!	!	!	!	!	!	!	!	!	!	!	!	!	!	!	!	!	!LO:MO:mod=!null:null	!	!	!	!	!	!	!
!LO:TX:a:t=4:mod=	!	!	!LO:TX:a:t=4:mod=	!	!	!	!	!	!	!	!LO:TX:a:t=4:mod=	!	!	!	!	!	!LO:TX:a:Bi:t=Tuba mirum	!	!	!	!	!	!	!
00r	.	.	00r	.	.	.	00r	.	.	.	00r	.	.	.	4ee-\	.	4ee-\	.	4EE-/	.	.	4e-/	.	1ryy
.	.	.	.	.	.	.	.	.	.	.	.	.	.	.	8e-/L	.	8e-/L	.	4r	.	.	8E-/L	.	.
.	.	.	.	.	.	.	.	.	.	.	.	.	.	.	8e-/J	.	8e-/J	.	.	.	.	8E-/	.	.
.	.	.	.	.	.	.	.	.	.	.	.	.	.	.	8g/L	.	8g/L	.	2r	.	.	8G/	.	.
.	.	.	.	.	.	.	.	.	.	.	.	.	.	.	8g/	.	8g/	.	.	.	.	8G/J	.	.
.	.	.	.	.	.	.	.	.	.	.	.	.	.	.	8b-/	.	8b-/	.	.	.	.	8B-/L	.	.
.	.	.	.	.	.	.	.	.	.	.	.	.	.	.	8b-/J	.	8b-/J	.	.	.	.	8B-/J	.	.
=48	=48	=48	=48	=48	=48	=48	=48	=48	=48	=48	=48	=48	=48	=48	=48	=48	=48	=48	=48	=48	=48	=48	=48	=48
.	.	.	.	.	.	.	.	.	.	.	.	.	.	.	4ee-\	.	4ee-\	.	4EE-/	.	.	4e-/	.	1ryy
.	.	.	.	.	.	.	.	.	.	.	.	.	.	.	8b-/L	.	8b-\L	.	4r	.	.	8B-/L	.	.
.	.	.	.	.	.	.	.	.	.	.	.	.	.	.	8b-/J	.	8b-\J	.	.	.	.	8B-/	.	.
.	.	.	.	.	.	.	.	.	.	.	.	.	.	.	8ee-\L	.	8ee-\L	.	2r	.	.	8e-/	.	.
.	.	.	.	.	.	.	.	.	.	.	.	.	.	.	8ee-\	.	8ee-\	.	.	.	.	8e-/	.	.
.	.	.	.	.	.	.	.	.	.	.	.	.	.	.	8gg\	.	8gg\	.	.	.	.	8g/	.	.
.	.	.	.	.	.	.	.	.	.	.	.	.	.	.	8gg\J	.	8gg\J	.	.	.	.	8g/J	.	.
=49	=49	=49	=49	=49	=49	=49	=49	=49	=49	=49	=49	=49	=49	=49	=49	=49	=49	=49	=49	=49	=49	=49	=49	=49
.	.	.	.	.	.	.	.	.	.	.	.	.	.	.	8gg\L	.	8bb-\L	.	4EE-/	.	.	4b-\	.	1ryy
.	.	.	.	.	.	.	.	.	.	.	.	.	.	.	8ee-\	.	8gg\	.	.	.	.	.	.	.
.	.	.	.	.	.	.	.	.	.	.	.	.	.	.	8gg\	.	8bb-\	.	4r	.	.	8gg\L	.	.
.	.	.	.	.	.	.	.	.	.	.	.	.	.	.	8ee-\J	.	8gg\J	.	.	.	.	8ee-\J	.	.
.	.	.	.	.	.	.	.	.	.	.	.	.	.	.	4g/	.	4ee-\	.	4E-\	.	.	4g/	.	.
.	.	.	.	.	.	.	.	.	.	.	.	.	.	.	8ee-\L	.	8gg\L	.	4EE-/	.	.	8b-\L	.	.
.	.	.	.	.	.	.	.	.	.	.	.	.	.	.	8ee-\J	.	8ee-\J	.	.	.	.	8g\J	.	.
=50	=50	=50	=50	=50	=50	=50	=50	=50	=50	=50	=50	=50	=50	=50	=50	=50	=50	=50	=50	=50	=50	=50	=50	=50
.	.	.	.	.	.	.	.	.	.	.	.	.	.	.	4b-/	.	4ff\	.	4BB-/	.	.	8g/L	.	1ryy
.	.	.	.	.	.	.	.	.	.	.	.	.	.	.	.	.	.	.	.	.	.	8f/	.	.
.	.	.	.	.	.	.	.	.	.	.	.	.	.	.	8b-/L	.	8ff\L	.	4BB-/	.	.	8f/	.	.
.	.	.	.	.	.	.	.	.	.	.	.	.	.	.	8b-/J	.	8ff\J	.	.	.	.	8f/J	.	.
.	.	.	.	.	.	.	.	.	.	.	.	.	.	.	2b-/	.	2ff\	.	2BB-/	.	.	2f/	.	.
=51	=51	=51	=51	=51	=51	=51	=51	=51	=51	=51	=51	=51	=51	=51	=51	=51	=51	=51	=51	=51	=51	=51	=51	=51
!	!	!	!	!	!	!	!	!	!	!	!	!	!	!	!LO:TX:a:t=4.:mod=	!	!LO:TX:a:t=4.:mod=	!	!	!	!	!LO:TX:a:t=5:mod=	!	!
2G\	per	.	2Bn\	per	.	.	2g\	per	.	.	2dd\	per	.	.	1r	.	1r	.	2GG/	.	.	1r	.	1ryy
2G\	ſe-	.	2B\	se-	.	.	2g\	se-	.	.	2dd\	se-	.	.	.	.	.	.	2G\	.	.	.	.	.
=52	=52	=52	=52	=52	=52	=52	=52	=52	=52	=52	=52	=52	=52	=52	=52	=52	=52	=52	=52	=52	=52	=52	=52	=52
2c\	-pul-	.	2c\	-pul-	.	.	2g\	-pul-	.	.	2ee-\	-pul-	.	.	1r	.	1r	.	2C/	.	.	1r	.	1ryy
2G\	-chra	.	2B-\	-chra	.	.	2f\	-chra	.	.	2dd\	-chra	.	.	.	.	.	.	2GG/	.	.	.	.	.
=53	=53	=53	=53	=53	=53	=53	=53	=53	=53	=53	=53	=53	=53	=53	=53	=53	=53	=53	=53	=53	=53	=53	=53	=53
!	!	!	!	!	!	!	!	!LO:MO:mod=Re-	!	!	!	!	!	!	!	!	!	!	!	!	!	!	!	!
2A-\	Re-	.	2c\	Re-	.	.	2e-\	re-	.	.	2cc\	Re-	.	.	1r	.	1r	.	2AA-/	.	.	1r	.	1ryy
2F\	-gi-	.	2d\	-gi-	.	.	4f\	-gi-	.	.	4dd\	-gi-	.	.	.	.	.	.	2FF/	.	.	.	.	.
.	.	.	.	.	.	.	4e-\	.	.	.	4cc\	.	.	.	.	.	.	.	.	.	.	.	.	.
=54	=54	=54	=54	=54	=54	=54	=54	=54	=54	=54	=54	=54	=54	=54	=54	=54	=54	=54	=54	=54	=54	=54	=54	=54
2G\	-o-	.	2G/	-o-	.	.	2e-\	-o-	.	.	2cc\	-o-	.	.	1r	.	1r	.	4GG/	.	.	1r	.	1ryy
.	.	.	.	.	.	.	.	.	.	.	.	.	.	.	.	.	.	.	4G\	.	.	.	.	.
2GG/	-nem	.	2G/	-nem	.	.	2d\	-nem	.	.	2bn\	-nem	.	.	.	.	.	.	2GG/	.	.	.	.	.
=55	=55	=55	=55	=55	=55	=55	=55	=55	=55	=55	=55	=55	=55	=55	=55	=55	=55	=55	=55	=55	=55	=55	=55	=55
!LO:TX:a:t=1:mod=	!	!	!LO:TX:a:t=1:mod=	!	!	!	!	!	!	!	!LO:TX:a:t=1:mod=	!	!	!	!	!	!	!	!LO:TX:a:t=1:mod=	!	!	!	!	!
1r	.	.	1r	.	.	.	1r	.	.	.	1r	.	.	.	4g/	.	4gg\	.	1r	.	.	1r	.	1ryy
.	.	.	.	.	.	.	.	.	.	.	.	.	.	.	8g/L	.	8gg\L	.	.	.	.	.	.	.
.	.	.	.	.	.	.	.	.	.	.	.	.	.	.	8g/J	.	8gg\J	.	.	.	.	.	.	.
.	.	.	.	.	.	.	.	.	.	.	.	.	.	.	4g/	.	4gg\	.	.	.	.	.	.	.
.	.	.	.	.	.	.	.	.	.	.	.	.	.	.	4g/	.	4gg\	.	.	.	.	.	.	.
=56	=56	=56	=56	=56	=56	=56	=56	=56	=56	=56	=56	=56	=56	=56	=56	=56	=56	=56	=56	=56	=56	=56	=56	=56
!	!	!	!	!	!	!	!	!	!	!	!	!	!	!	!	!LO:DY:a	!	!LO:DY:a	!	!	!	!	!	!
2.G\	Co-	.	2.d\	Co-	.	.	2.g\	Co-	.	.	2.bn\	Co-	.	.	1g	p	1gg	p	4GG/	.	.	8G/L	.	1ryy
.	.	.	.	.	.	.	.	.	.	.	.	.	.	.	.	.	.	.	.	.	.	8f/	.	.
.	.	.	.	.	.	.	.	.	.	.	.	.	.	.	.	.	.	.	4r	.	.	8d/	.	.
.	.	.	.	.	.	.	.	.	.	.	.	.	.	.	.	.	.	.	.	.	.	8f/J	.	.
.	.	.	.	.	.	.	.	.	.	.	.	.	.	.	.	.	.	.	2r	.	.	8G/L	.	.
.	.	.	.	.	.	.	.	.	.	.	.	.	.	.	.	.	.	.	.	.	.	8f/	.	.
4G\	-get	.	4d\	-get	.	.	4f\	-get	.	.	4b\	-get	.	.	.	.	.	.	.	.	.	8d/	.	.
.	.	.	.	.	.	.	.	.	.	.	.	.	.	.	.	.	.	.	.	.	.	8f/J	.	.
=57	=57	=57	=57	=57	=57	=57	=57	=57	=57	=57	=57	=57	=57	=57	=57	=57	=57	=57	=57	=57	=57	=57	=57	=57
!	!	!	!	!LO:MO:mod=om-	!	!	!	!	!	!	!	!LO:MO:mod=om-	!	!	!	!	!	!	!	!	!	!	!	!
2c\	om-	.	2c\	o-	.	.	2e-\	om-	.	.	2cc\	o-	.	.	1g	.	1gg	.	4C/	.	.	8G/L	.	1ryy
.	.	.	.	.	.	.	.	.	.	.	.	.	.	.	.	.	.	.	.	.	.	8e-/	.	.
.	.	.	.	.	.	.	.	.	.	.	.	.	.	.	.	.	.	.	4r	.	.	8c/	.	.
.	.	.	.	.	.	.	.	.	.	.	.	.	.	.	.	.	.	.	.	.	.	8e-/J	.	.
!	!	!	!	!LO:MO:mod=-nes	!	!	!	!	!	!	!	!LO:MO:mod=-nes	!	!	!	!	!	!	!	!	!	!	!	!
2C/	-nes	.	2G/	-mnes	.	.	2e-\	-nes	.	.	2cc\	-mnes	.	.	.	.	.	.	2r	.	.	8G/L	.	.
.	.	.	.	.	.	.	.	.	.	.	.	.	.	.	.	.	.	.	.	.	.	8e-/	.	.
.	.	.	.	.	.	.	.	.	.	.	.	.	.	.	.	.	.	.	.	.	.	8c/	.	.
.	.	.	.	.	.	.	.	.	.	.	.	.	.	.	.	.	.	.	.	.	.	8e-/J	.	.
=58	=58	=58	=58	=58	=58	=58	=58	=58	=58	=58	=58	=58	=58	=58	=58	=58	=58	=58	=58	=58	=58	=58	=58	=58
2.G\	an-	.	2.Bn\	an-	.	.	2.g\	an-	.	.	2.dd\	an-	.	.	1g	.	1gg	.	4GG/	.	.	8G/L	.	1ryy
.	.	.	.	.	.	.	.	.	.	.	.	.	.	.	.	.	.	.	.	.	.	8d/	.	.
.	.	.	.	.	.	.	.	.	.	.	.	.	.	.	.	.	.	.	4r	.	.	8BX/	.	.
.	.	.	.	.	.	.	.	.	.	.	.	.	.	.	.	.	.	.	.	.	.	8d/J	.	.
.	.	.	.	.	.	.	.	.	.	.	.	.	.	.	.	.	.	.	2r	.	.	8F/L	.	.
.	.	.	.	.	.	.	.	.	.	.	.	.	.	.	.	.	.	.	.	.	.	8d/	.	.
4G\	-te	.	4B\	-te	.	.	4g\	-te	.	.	4dd\	-te	.	.	.	.	.	.	.	.	.	8BX/	.	.
.	.	.	.	.	.	.	.	.	.	.	.	.	.	.	.	.	.	.	.	.	.	8d/J	.	.
=59	=59	=59	=59	=59	=59	=59	=59	=59	=59	=59	=59	=59	=59	=59	=59	=59	=59	=59	=59	=59	=59	=59	=59	=59
2c\	Thro-	.	2c\	Thro-	.	.	2g\	Thro-	.	.	2ee-\	Thro-	.	.	2g/	.	2gg\	.	4C/	.	.	8G/L	.	1ryy
.	.	.	.	.	.	.	.	.	.	.	.	.	.	.	.	.	.	.	.	.	.	8e-/	.	.
.	.	.	.	.	.	.	.	.	.	.	.	.	.	.	.	.	.	.	4r	.	.	8c/	.	.
.	.	.	.	.	.	.	.	.	.	.	.	.	.	.	.	.	.	.	.	.	.	8e-/J	.	.
!	!LO:MO:mod=-num	!	!	!LO:MO:mod=-num	!	!	!	!LO:MO:mod=-num	!	!	!	!	!	!	!	!	!	!	!	!	!	!	!	!
2C/	-n(um)	.	4c\	-n(um)	.	.	4g\	-n(um)	.	.	4ee-\	-num	.	.	2r	.	2r	.	4C/	.	.	4c/	.	.
.	.	.	4r	.	.	.	4r	.	.	.	4r	.	.	.	.	.	.	.	4r	.	.	4r	.	.
=60	=60	=60	=60	=60	=60	=60	=60	=60	=60	=60	=60	=60	=60	=60	=60	=60	=60	=60	=60	=60	=60	=60	=60	=60
2.F\	Co-	.	2.c\	Co-	.	.	2.f\	Co-	.	.	2.an\	Co-	.	.	1ff	.	1ff	.	4FF/	.	.	8F/L	.	1ryy
.	.	.	.	.	.	.	.	.	.	.	.	.	.	.	.	.	.	.	.	.	.	8e-/	.	.
.	.	.	.	.	.	.	.	.	.	.	.	.	.	.	.	.	.	.	4r	.	.	8c/	.	.
.	.	.	.	.	.	.	.	.	.	.	.	.	.	.	.	.	.	.	.	.	.	8e-/J	.	.
.	.	.	.	.	.	.	.	.	.	.	.	.	.	.	.	.	.	.	2r	.	.	8F/L	.	.
.	.	.	.	.	.	.	.	.	.	.	.	.	.	.	.	.	.	.	.	.	.	8e-/	.	.
4F\	-get	.	4c\	-gut	.	.	4f\	-get	.	.	4a\	-get	.	.	.	.	.	.	.	.	.	8c/	.	.
.	.	.	.	.	.	.	.	.	.	.	.	.	.	.	.	.	.	.	.	.	.	8e-/J	.	.
=61	=61	=61	=61	=61	=61	=61	=61	=61	=61	=61	=61	=61	=61	=61	=61	=61	=61	=61	=61	=61	=61	=61	=61	=61
2B-\	om-	.	2d\	om-	.	.	2f\	om-	.	.	2b-\	om-	.	.	1ff	.	1ff	.	4BB-/	.	.	8F/L	.	1ryy
.	.	.	.	.	.	.	.	.	.	.	.	.	.	.	.	.	.	.	.	.	.	8d/	.	.
.	.	.	.	.	.	.	.	.	.	.	.	.	.	.	.	.	.	.	4r	.	.	8B-/	.	.
.	.	.	.	.	.	.	.	.	.	.	.	.	.	.	.	.	.	.	.	.	.	8d/J	.	.
2BB-/	-nes	.	2d\	-nes	.	.	2f\	-nes	.	.	2b-\	-nes	.	.	.	.	.	.	2r	.	.	8F/L	.	.
.	.	.	.	.	.	.	.	.	.	.	.	.	.	.	.	.	.	.	.	.	.	8d/	.	.
.	.	.	.	.	.	.	.	.	.	.	.	.	.	.	.	.	.	.	.	.	.	8B-/	.	.
.	.	.	.	.	.	.	.	.	.	.	.	.	.	.	.	.	.	.	.	.	.	8d/J	.	.
=62	=62	=62	=62	=62	=62	=62	=62	=62	=62	=62	=62	=62	=62	=62	=62	=62	=62	=62	=62	=62	=62	=62	=62	=62
2.F\	an-	.	2.An\	an-	.	.	2.f\	an-	.	.	2.cc\	an-	.	.	1ff	.	1ff	.	4FF/	.	.	8F/L	.	1ryy
.	.	.	.	.	.	.	.	.	.	.	.	.	.	.	.	.	.	.	.	.	.	8A-/	.	.
.	.	.	.	.	.	.	.	.	.	.	.	.	.	.	.	.	.	.	4r	.	.	8c/	.	.
.	.	.	.	.	.	.	.	.	.	.	.	.	.	.	.	.	.	.	.	.	.	8A-/J	.	.
.	.	.	.	.	.	.	.	.	.	.	.	.	.	.	.	.	.	.	2r	.	.	8F/L	.	.
.	.	.	.	.	.	.	.	.	.	.	.	.	.	.	.	.	.	.	.	.	.	8A-/	.	.
4F\	-te	.	4A\	-te	.	.	4f\	-te	.	.	4cc\	-te	.	.	.	.	.	.	.	.	.	8c/	.	.
.	.	.	.	.	.	.	.	.	.	.	.	.	.	.	.	.	.	.	.	.	.	8A-/J	.	.
=63	=63	=63	=63	=63	=63	=63	=63	=63	=63	=63	=63	=63	=63	=63	=63	=63	=63	=63	=63	=63	=63	=63	=63	=63
2B-\	Thro-	.	2B-\	Thro-	.	.	2f\	Thro-	.	.	2dd\	Thro-	.	.	2b-/	.	2ff\	.	4BB-/	.	.	8F/L	.	1ryy
.	.	.	.	.	.	.	.	.	.	.	.	.	.	.	.	.	.	.	.	.	.	8B-/	.	.
.	.	.	.	.	.	.	.	.	.	.	.	.	.	.	.	.	.	.	4B-\	.	.	8d/	.	.
.	.	.	.	.	.	.	.	.	.	.	.	.	.	.	.	.	.	.	.	.	.	8f/J	.	.
4BB-/	-num	.	4B-\	-num	.	.	4f\	-num	.	.	4dd\	-num	.	.	2r	.	2r	.	2r	.	.	8b-\L	.	.
.	.	.	.	.	.	.	.	.	.	.	.	.	.	.	.	.	.	.	.	.	.	8cc\	.	.
4r	.	.	4r	.	.	.	4r	.	.	.	4r	.	.	.	.	.	.	.	.	.	.	8cc\	.	.
.	.	.	.	.	.	.	.	.	.	.	.	.	.	.	.	.	.	.	.	.	.	8dd\J	.	.
=64	=64	=64	=64	=64	=64	=64	=64	=64	=64	=64	=64	=64	=64	=64	=64	=64	=64	=64	=64	=64	=64	=64	=64	=64
!LO:TX:a:t=3:mod=	!	!	!LO:TX:a:t=3:mod=	!	!	!	!LO:TX:a:t=3:mod=	!	!	!	!LO:TX:a:t=3:mod=	!	!	!	!	!	!	!	!	!	!	!	!	!
0r	.	.	0r	.	.	.	0r	.	.	.	0r	.	.	.	2b-/	.	2ff\	.	4BB-/	.	.	8dd\L	.	1ryy
.	.	.	.	.	.	.	.	.	.	.	.	.	.	.	.	.	.	.	.	.	.	8cc\	.	.
.	.	.	.	.	.	.	.	.	.	.	.	.	.	.	.	.	.	.	4r	.	.	8b-\	.	.
.	.	.	.	.	.	.	.	.	.	.	.	.	.	.	.	.	.	.	.	.	.	8a-\J	.	.
.	.	.	.	.	.	.	.	.	.	.	.	.	.	.	4r	.	4r	.	4r	.	.	8g/L	.	.
.	.	.	.	.	.	.	.	.	.	.	.	.	.	.	.	.	.	.	.	.	.	8f/	.	.
.	.	.	.	.	.	.	.	.	.	.	.	.	.	.	4b-/	.	4ff\	.	4BB-/	.	.	8e-/	.	.
.	.	.	.	.	.	.	.	.	.	.	.	.	.	.	.	.	.	.	.	.	.	8f/J	.	.
=65	=65	=65	=65	=65	=65	=65	=65	=65	=65	=65	=65	=65	=65	=65	=65	=65	=65	=65	=65	=65	=65	=65	=65	=65
.	.	.	.	.	.	.	.	.	.	.	.	.	.	.	2g/	.	2ee-\	.	4E-\	.	.	8f/L	.	1ryy
.	.	.	.	.	.	.	.	.	.	.	.	.	.	.	.	.	.	.	.	.	.	8e-/	.	.
.	.	.	.	.	.	.	.	.	.	.	.	.	.	.	.	.	.	.	4EE-/	.	.	8a-/	.	.
.	.	.	.	.	.	.	.	.	.	.	.	.	.	.	.	.	.	.	.	.	.	8g/J	.	.
.	.	.	.	.	.	.	.	.	.	.	.	.	.	.	4r	.	4r	.	4r	.	.	4g\	.	.
.	.	.	.	.	.	.	.	.	.	.	.	.	.	.	4g/	.	4ee-\	.	4E-\	.	.	8g\L	.	.
.	.	.	.	.	.	.	.	.	.	.	.	.	.	.	.	.	.	.	.	.	.	8ee-\J	.	.
=66	=66	=66	=66	=66	=66	=66	=66	=66	=66	=66	=66	=66	=66	=66	=66	=66	=66	=66	=66	=66	=66	=66	=66	=66
1r	.	.	1r	.	.	.	1r	.	.	.	1r	.	.	.	2b-/	.	2ff\	.	2BB-/	.	.	8dd\L	.	1ryy
.	.	.	.	.	.	.	.	.	.	.	.	.	.	.	.	.	.	.	.	.	.	8cc\	.	.
.	.	.	.	.	.	.	.	.	.	.	.	.	.	.	.	.	.	.	.	.	.	8b-\	.	.
.	.	.	.	.	.	.	.	.	.	.	.	.	.	.	.	.	.	.	.	.	.	8a-\J	.	.
.	.	.	.	.	.	.	.	.	.	.	.	.	.	.	4r	.	4r	.	4r	.	.	8g/L	.	.
.	.	.	.	.	.	.	.	.	.	.	.	.	.	.	.	.	.	.	.	.	.	8f/	.	.
.	.	.	.	.	.	.	.	.	.	.	.	.	.	.	4b-/	.	4ff\	.	4BB-/	.	.	8e-/	.	.
.	.	.	.	.	.	.	.	.	.	.	.	.	.	.	.	.	.	.	.	.	.	8f/J	.	.
=67	=67	=67	=67	=67	=67	=67	=67	=67	=67	=67	=67	=67	=67	=67	=67	=67	=67	=67	=67	=67	=67	=67	=67	=67
2e-\	Tu-	.	2e-\	Tu-	.	.	2e-\	Tu-	.	.	2ee-\	Tu-	.	.	2g/	.	2ee-\	.	2E-\	.	.	2e-/	.	1ryy
2e-\	-ba	.	2e-\	-ba	.	.	2e-\	-ba	.	.	2ee-\	-ba	.	.	2r	.	2r	.	2r	.	.	2r	.	.
=68	=68	=68	=68	=68	=68	=68	=68	=68	=68	=68	=68	=68	=68	=68	=68	=68	=68	=68	=68	=68	=68	=68	=68	=68
!	!	!	!	!	!	!	!	!LO:MO:mod=Mi-	!	!	!	!	!	!	!LO:TX:a:t=1.:mod=	!	!LO:TX:a:t=1.:mod=	!	!LO:TX:a:t=1:mod=	!	!	!LO:TX:a:t=1:mod=	!	!
2e-\	Mi-	.	2e-\	Mi-	.	.	2e-\	mi-	.	.	2ee-\	Mi-	.	.	1r	.	1r	.	1r	.	.	1r	.	1ryy
2E-\	-rum	.	2E-/	-rum	.	.	2e-\	-rum	.	.	2e-/	-rum	.	.	.	.	.	.	.	.	.	.	.	.
=69	=69	=69	=69	=69	=69	=69	=69	=69	=69	=69	=69	=69	=69	=69	=69	=69	=69	=69	=69	=69	=69	=69	=69	=69
!LO:TX:a:t=4:mod=	!	!	!LO:TX:a:t=4:mod=	!	!	!	!LO:TX:a:t=4:mod=	!	!	!	!LO:TX:a:t=4:mod=	!	!	!	!	!	!	!	!	!	!	!	!	!
00r	.	.	00r	.	.	.	00r	.	.	.	00r	.	.	.	4e-/	.	4ee-\	.	4EE-/	.	.	4e-/	.	1ryy
.	.	.	.	.	.	.	.	.	.	.	.	.	.	.	8e-/L	.	8e-/L	.	4r	.	.	8E-/L	.	.
.	.	.	.	.	.	.	.	.	.	.	.	.	.	.	8e-/J	.	8e-/J	.	.	.	.	8E-/	.	.
.	.	.	.	.	.	.	.	.	.	.	.	.	.	.	8g/L	.	8g/L	.	2r	.	.	8G/	.	.
.	.	.	.	.	.	.	.	.	.	.	.	.	.	.	8g/	.	8g/	.	.	.	.	8G/	.	.
.	.	.	.	.	.	.	.	.	.	.	.	.	.	.	8b-/	.	8b-/	.	.	.	.	8B-/	.	.
.	.	.	.	.	.	.	.	.	.	.	.	.	.	.	8b-/J	.	8b-/J	.	.	.	.	8B-/J	.	.
=70	=70	=70	=70	=70	=70	=70	=70	=70	=70	=70	=70	=70	=70	=70	=70	=70	=70	=70	=70	=70	=70	=70	=70	=70
.	.	.	.	.	.	.	.	.	.	.	.	.	.	.	4r	.	4ee-\	.	4EE-/	.	.	4e-/	.	1ryy
.	.	.	.	.	.	.	.	.	.	.	.	.	.	.	8g/L	.	8b-/L	.	4r	.	.	8g\L	.	.
.	.	.	.	.	.	.	.	.	.	.	.	.	.	.	8g/J	.	8b-/J	.	.	.	.	8g\J	.	.
.	.	.	.	.	.	.	.	.	.	.	.	.	.	.	8b-/L	.	8ee-\L	.	2r	.	.	8b-\L	.	.
.	.	.	.	.	.	.	.	.	.	.	.	.	.	.	8b-/	.	8ee-\	.	.	.	.	8b-\J	.	.
.	.	.	.	.	.	.	.	.	.	.	.	.	.	.	8ee-/	.	8gg\	.	.	.	.	8ee-\L	.	.
.	.	.	.	.	.	.	.	.	.	.	.	.	.	.	8ee-/J	.	8gg\J	.	.	.	.	8ee-\J	.	.
=71	=71	=71	=71	=71	=71	=71	=71	=71	=71	=71	=71	=71	=71	=71	=71	=71	=71	=71	=71	=71	=71	=71	=71	=71
.	.	.	.	.	.	.	.	.	.	.	.	.	.	.	8gg\L	.	8bb-\L	.	4E-\	.	.	8gg\L	.	1ryy
.	.	.	.	.	.	.	.	.	.	.	.	.	.	.	8ee-\	.	8gg\	.	.	.	.	8ee-\	.	.
.	.	.	.	.	.	.	.	.	.	.	.	.	.	.	8gg\	.	8bb-\	.	4r	.	.	8gg\	.	.
.	.	.	.	.	.	.	.	.	.	.	.	.	.	.	8ee-\J	.	8gg\J	.	.	.	.	8ee-\J	.	.
.	.	.	.	.	.	.	.	.	.	.	.	.	.	.	4g/	.	4ee-\	.	8E-\L	.	.	4g/	.	.
.	.	.	.	.	.	.	.	.	.	.	.	.	.	.	.	.	.	.	8E-\	.	.	.	.	.
.	.	.	.	.	.	.	.	.	.	.	.	.	.	.	4g/	.	4ee-\	.	8BB-\	.	.	4g/	.	.
.	.	.	.	.	.	.	.	.	.	.	.	.	.	.	.	.	.	.	8GG\J	.	.	.	.	.
=72	=72	=72	=72	=72	=72	=72	=72	=72	=72	=72	=72	=72	=72	=72	=72	=72	=72	=72	=72	=72	=72	=72	=72	=72
.	.	.	.	.	.	.	.	.	.	.	.	.	.	.	2g/	.	2ee-\	.	4EE-/	.	.	2g/	.	1ryy
.	.	.	.	.	.	.	.	.	.	.	.	.	.	.	.	.	.	.	8E-\L	.	.	.	.	.
.	.	.	.	.	.	.	.	.	.	.	.	.	.	.	.	.	.	.	8G\J	.	.	.	.	.
.	.	.	.	.	.	.	.	.	.	.	.	.	.	.	2r	.	2r	.	8F\L	.	.	2r	.	.
.	.	.	.	.	.	.	.	.	.	.	.	.	.	.	.	.	.	.	8E-\	.	.	.	.	.
.	.	.	.	.	.	.	.	.	.	.	.	.	.	.	.	.	.	.	8D\	.	.	.	.	.
.	.	.	.	.	.	.	.	.	.	.	.	.	.	.	.	.	.	.	8C\J	.	.	.	.	.
=73||	=73||	=73||	=73||	=73||	=73||	=73||	=73||	=73||	=73||	=73||	=73||	=73||	=73||	=73||	=73||	=73||	=73||	=73||	=73||	=73||	=73||	=73||	=73||	=73||
!LO:TX:a:t=1:mod=	!	!	!	!	!	!	!	!	!	!	!	!	!	!	!LO:TX:a:Bi:t=Mors Stupebit.	!	!LO:TX:a:Bi:t=Mors Stupebit	!	!LO:TX:a:Bi:t=Mors Stupebit	!	!	!LO:TX:a:Bi:t=Mors Stupebit	!	!
1r	.	.	2d\	Mors	.	.	1r	.	.	.	2ff\	Mors	.	.	2b-/	.	2b-/	.	2BB-/	.	.	2dd\	.	1ryy
.	.	.	8B-\L	Stu-	.	.	.	.	.	.	8dd\L	stu-	.	.	2r	.	2r	.	2r	.	.	8b-\L	.	.
.	.	.	8c\	.	.	.	.	.	.	.	8ee-\	.	.	.	.	.	.	.	.	.	.	8cc\	.	.
.	.	.	8d\	.	.	.	.	.	.	.	8ff\	.	.	.	.	.	.	.	.	.	.	8dd\	.	.
.	.	.	8e-\J	.	.	.	.	.	.	.	8gg\J	.	.	.	.	.	.	.	.	.	.	8ee-\J	.	.
=74	=74	=74	=74	=74	=74	=74	=74	=74	=74	=74	=74	=74	=74	=74	=74	=74	=74	=74	=74	=74	=74	=74	=74	=74
4r	.	.	2d\	-pe-	.	.	1r	.	.	.	2ff\	-pe-	.	.	4r	.	4r	.	4r	.	.	2dd\	.	1ryy
2B-\	Mors	.	.	.	.	.	.	.	.	.	.	.	.	.	4b-/	.	4b-/	.	4BB-/	.	.	.	.	.
.	.	.	4B-\	-bit	.	.	.	.	.	.	4dd\	-bit	.	.	4b-/	.	4b-/	.	4B-\	.	.	4b-\	.	.
4BB-/	ſtu-	.	4r	.	.	.	.	.	.	.	4r	.	.	.	4b-/	.	4b-/	.	4BB-/	.	.	4r	.	.
=75	=75	=75	=75	=75	=75	=75	=75	=75	=75	=75	=75	=75	=75	=75	=75	=75	=75	=75	=75	=75	=75	=75	=75	=75
4F\	-pe-	.	2c\	et	.	.	1r	.	.	.	2ee-\	et	.	.	2ff\	.	2ff\	.	2FF/	.	.	2cc\	.	1ryy
4F\	-bit	.	.	.	.	.	.	.	.	.	.	.	.	.	.	.	.	.	.	.	.	.	.	.
2r	.	.	8A-\L	na-	.	.	.	.	.	.	8cc\L	na-	.	.	2r	.	2r	.	2r	.	.	8a-\L	.	.
.	.	.	8B-\	.	.	.	.	.	.	.	8dd\	.	.	.	.	.	.	.	.	.	.	8b-\	.	.
.	.	.	8c\	.	.	.	.	.	.	.	8ee-\	.	.	.	.	.	.	.	.	.	.	8cc\	.	.
.	.	.	8d\J	.	.	.	.	.	.	.	8ff\J	.	.	.	.	.	.	.	.	.	.	8dd\J	.	.
=76	=76	=76	=76	=76	=76	=76	=76	=76	=76	=76	=76	=76	=76	=76	=76	=76	=76	=76	=76	=76	=76	=76	=76	=76
4r	.	.	2c\	-tu-	.	.	1r	.	.	.	2ee-\	-tu-	.	.	4r	.	4r	.	4r	.	.	2cc\	.	1ryy
2F\	et	.	.	.	.	.	.	.	.	.	.	.	.	.	4ff\	.	4ff\	.	4FF/	.	.	.	.	.
.	.	.	4A-\	-ra	.	.	.	.	.	.	4cc\	-ra	.	.	4ff\	.	4ff\	.	4F\	.	.	4a-\	.	.
4F\	na-	.	4r	.	.	.	.	.	.	.	4r	.	.	.	4ff\	.	4ff\	.	4FF/	.	.	4r	.	.
=77	=77	=77	=77	=77	=77	=77	=77	=77	=77	=77	=77	=77	=77	=77	=77	=77	=77	=77	=77	=77	=77	=77	=77	=77
2.B-\	-tu-	.	4r	.	.	.	4r	.	.	.	4r	.	.	.	4ff\	.	4ff\	.	2BB-/	.	.	4r	.	1ryy
*	*	*	*	*ij	*	*	*	*	*	*	*	*ij	*	*	*	*	*	*	*	*	*	*	*	*
.	.	.	2B-\	et	.	.	2f\	mors	.	.	2dd\	et	.	.	4r	.	4r	.	.	.	.	2f/	.	.
.	.	.	.	.	.	.	.	.	.	.	.	.	.	.	4r	.	4r	.	4B-\	.	.	.	.	.
4G\	.	.	4c\	na-	.	.	4b-\	stu-	.	.	4een\	na-	.	.	4gg\	.	4gg\	.	4G\	.	.	4b-\	.	.
=78	=78	=78	=78	=78	=78	=78	=78	=78	=78	=78	=78	=78	=78	=78	=78	=78	=78	=78	=78	=78	=78	=78	=78	=78
4F\	-ra	.	2c\	-tu-	.	.	2a-\	-pe-	.	.	2ff\	-tu-	.	.	4ff\	.	4ff\	.	4F\	.	.	4a-\	.	1ryy
4r	.	.	.	.	.	.	.	.	.	.	.	.	.	.	4ff\	.	4ff\	.	8C/L	.	.	4a-\	.	.
.	.	.	.	.	.	.	.	.	.	.	.	.	.	.	.	.	.	.	8AA-/J	.	.	.	.	.
2r	.	.	4c\	-ra	.	.	4a-\	-bit	.	.	4f/	-ra	.	.	4ff\	.	4ff\	.	4FF/	.	.	4a-\	.	.
*	*	*	*	*Xij	*	*	*	*	*	*	*	*Xij	*	*	*	*	*	*	*	*	*	*	*	*
.	.	.	4r	.	.	.	4r	.	.	.	4r	.	.	.	4r	.	4r	.	4r	.	.	4r	.	.
=79	=79	=79	=79	=79	=79	=79	=79	=79	=79	=79	=79	=79	=79	=79	=79	=79	=79	=79	=79	=79	=79	=79	=79	=79
!	!	!	!	!	!	!	!	!	!	!	!	!	!	!	!LO:TX:a:t=4.:mod=	!	!LO:TX:a:t=4.:mod=	!	!LO:TX:a:t=4:mod=	!	!	!LO:TX:a:t=5:mod=	!	!
4r	.	.	4r	.	.	.	4r	.	.	.	4r	.	.	.	1r	.	1r	.	1r	.	.	1r	.	1ryy
2F\	Mors	.	2F/	Cum	.	.	2a-\	et	.	.	2cc\	cum	.	.	.	.	.	.	.	.	.	.	.	.
4F\	stu-	.	4F/	re-	.	.	4b-\	na-	.	.	4dd\	re-	.	.	.	.	.	.	.	.	.	.	.	.
=80	=80	=80	=80	=80	=80	=80	=80	=80	=80	=80	=80	=80	=80	=80	=80	=80	=80	=80	=80	=80	=80	=80	=80	=80
2F\	-pe-	.	2F/	-sur-	.	.	4a-\	-tu-	.	.	4cc\	-sur-	.	.	1r	.	1r	.	1r	.	.	1r	.	1ryy
.	.	.	.	.	.	.	4b-\	.	.	.	8ff\L	.	.	.	.	.	.	.	.	.	.	.	.	.
.	.	.	.	.	.	.	.	.	.	.	8dd\J	.	.	.	.	.	.	.	.	.	.	.	.	.
2C/	.	.	2c\	-get	.	.	4a-\	.	.	.	4cc\	.	.	.	.	.	.	.	.	.	.	.	.	.
.	.	.	.	.	.	.	4g\	.	.	.	4b-\	-get	.	.	.	.	.	.	.	.	.	.	.	.
=81	=81	=81	=81	=81	=81	=81	=81	=81	=81	=81	=81	=81	=81	=81	=81	=81	=81	=81	=81	=81	=81	=81	=81	=81
4F\	-bit	.	2.F/	Cre-	.	.	4f\	.	.	.	4a-\	Cre-	.	.	1r	.	1r	.	1r	.	.	1r	.	1ryy
2F\	et	.	.	.	.	.	2a-\	.	.	.	2cc\	-a-	.	.	.	.	.	.	.	.	.	.	.	.
4F\	na-	.	4F/	-a-	.	.	8b-\	.	.	.	4dd\	.	.	.	.	.	.	.	.	.	.	.	.	.
.	.	.	.	.	.	.	8b-\	.	.	.	.	.	.	.	.	.	.	.	.	.	.	.	.	.
=82	=82	=82	=82	=82	=82	=82	=82	=82	=82	=82	=82	=82	=82	=82	=82	=82	=82	=82	=82	=82	=82	=82	=82	=82
2F\	-tu-	.	2F/	-tu-	.	.	4a-\	.	.	.	4cc\	.	.	.	1r	.	1r	.	1r	.	.	1r	.	1ryy
.	.	.	.	.	.	.	4b-\	.	.	.	8ff\L	-tu-	.	.	.	.	.	.	.	.	.	.	.	.
.	.	.	.	.	.	.	.	.	.	.	8dd\J	.	.	.	.	.	.	.	.	.	.	.	.	.
2C/	.	.	2c\	.	.	.	4a-\	.	.	.	4cc\	.	.	.	.	.	.	.	.	.	.	.	.	.
.	.	.	.	.	.	.	4g\	.	.	.	4b-\	.	.	.	.	.	.	.	.	.	.	.	.	.
=83	=83	=83	=83	=83	=83	=83	=83	=83	=83	=83	=83	=83	=83	=83	=83	=83	=83	=83	=83	=83	=83	=83	=83	=83
4F\	-ra	.	4c\	-ra	.	.	4f\	-ra	.	.	4a-\	-ra	.	.	4r	.	4r	.	4FF/	.	.	1r	.	1ryy
4r	.	.	4r	.	.	.	4r	.	.	.	4r	.	.	.	4ff\	.	4ff\	.	4r	.	.	.	.	.
2r	.	.	2r	.	.	.	2r	.	.	.	2r	.	.	.	4ff\	.	4ff\	.	2r	.	.	.	.	.
.	.	.	.	.	.	.	.	.	.	.	.	.	.	.	4ff\	.	4ff\	.	.	.	.	.	.	.
=84	=84	=84	=84	=84	=84	=84	=84	=84	=84	=84	=84	=84	=84	=84	=84	=84	=84	=84	=84	=84	=84	=84	=84	=84
4r	.	.	2.c\	Cum	.	.	4r	.	.	.	4r	.	.	.	2ff\	.	2ff\	.	4r	.	.	2cc\	.	1ryy
*	*	*	*	*	*	*	*	*ij	*	*	*	*	*	*	*	*	*	*	*	*	*	*	*	*
2F\	et	.	.	.	.	.	2f\	et	.	.	2ee-\	cum	.	.	.	.	.	.	4FF/	.	.	.	.	.
.	.	.	.	.	.	.	.	.	.	.	.	.	.	.	4ff\	.	4ff\	.	4F\	.	.	4a-\	.	.
4F\	na-	.	4A-\	re-	.	.	4f\	na-	.	.	4cc\	re-	.	.	4ff\	.	4ff\	.	4FF/	.	.	4r	.	.
=85	=85	=85	=85	=85	=85	=85	=85	=85	=85	=85	=85	=85	=85	=85	=85	=85	=85	=85	=85	=85	=85	=85	=85	=85
4B-\	-tu-	.	4B-\	-sur-	.	.	4f\	-tu-	.	.	4dd\	-sur-	.	.	2b-/	.	2ff\	.	4BB-/	.	.	8b-\L	.	1ryy
.	.	.	.	.	.	.	.	.	.	.	.	.	.	.	.	.	.	.	.	.	.	8cc\	.	.
4BB-/	-ra	.	4B-\	-get	.	.	4f\	-ra	.	.	4b-\	-get	.	.	.	.	.	.	4r	.	.	8dd\	.	.
.	.	.	.	.	.	.	.	.	.	.	.	.	.	.	.	.	.	.	.	.	.	8ee-\J	.	.
*	*	*	*	*	*	*	*	*Xij	*	*	*	*	*	*	*	*	*	*	*	*	*	*	*	*
2r	.	.	2r	.	.	.	2r	.	.	.	2r	.	.	.	2r	.	2r	.	2r	.	.	4dd\	.	.
.	.	.	.	.	.	.	.	.	.	.	.	.	.	.	.	.	.	.	.	.	.	8b-\L	.	.
.	.	.	.	.	.	.	.	.	.	.	.	.	.	.	.	.	.	.	.	.	.	8dd\J	.	.
=86	=86	=86	=86	=86	=86	=86	=86	=86	=86	=86	=86	=86	=86	=86	=86	=86	=86	=86	=86	=86	=86	=86	=86	=86
4r	.	.	4r	.	.	.	4r	.	.	.	4r	.	.	.	4r	.	4r	.	4r	.	.	2cc\	.	1ryy
2F\	et	.	2c\	Cre-	.	.	2f\	et	.	.	2ee-\	Cre-	.	.	4ff\	.	4ff\	.	4FF/	.	.	.	.	.
.	.	.	.	.	.	.	.	.	.	.	.	.	.	.	4ff\	.	4ff\	.	4F\	.	.	4a-\	.	.
4F\	na-	.	4A-\	-a-	.	.	4f\	na-	.	.	4cc\	-a-	.	.	4ff\	.	4ff\	.	4FF/	.	.	4r	.	.
=87	=87	=87	=87	=87	=87	=87	=87	=87	=87	=87	=87	=87	=87	=87	=87	=87	=87	=87	=87	=87	=87	=87	=87	=87
4B-\	-tu-	.	4B-\	-tu-	.	.	4f\	-tu-	.	.	4dd\	-tu-	.	.	2b-/	.	2ff\	.	4BB-/	.	.	8b-\L	.	1ryy
.	.	.	.	.	.	.	.	.	.	.	.	.	.	.	.	.	.	.	.	.	.	8cc\	.	.
4BB-/	-ra	.	4B-\	-ra	.	.	4f\	-ra	.	.	4b-\	-ra	.	.	.	.	.	.	4r	.	.	8dd\	.	.
.	.	.	.	.	.	.	.	.	.	.	.	.	.	.	.	.	.	.	.	.	.	8ee-\J	.	.
2r	.	.	2r	.	.	.	2r	.	.	.	2r	.	.	.	4r	.	4r	.	4r	.	.	8dd\L	.	.
.	.	.	.	.	.	.	.	.	.	.	.	.	.	.	.	.	.	.	.	.	.	8b-\	.	.
.	.	.	.	.	.	.	.	.	.	.	.	.	.	.	4b-/	.	4ff\	.	4BB-/	.	.	8dd\	.	.
.	.	.	.	.	.	.	.	.	.	.	.	.	.	.	.	.	.	.	.	.	.	8b-\J	.	.
=88	=88	=88	=88	=88	=88	=88	=88	=88	=88	=88	=88	=88	=88	=88	=88	=88	=88	=88	=88	=88	=88	=88	=88	=88
!LO:TX:a:t=2:mod=	!	!	!LO:TX:a:t=1:mod=	!	!	!	!LO:TX:a:t=6:mod=	!	!	!	!LO:TX:a:t=1:mod=	!	!	!	!	!	!	!	!	!	!	!	!	!
0r	.	.	1r	.	.	.	00r	.	.	.	1r	.	.	.	4ff\	.	4ff\	.	4F\	.	.	2b-\	.	1ryy
.	.	.	.	.	.	.	.	.	.	.	.	.	.	.	4ff\	.	4ff\	.	4FF/	.	.	.	.	.
.	.	.	.	.	.	.	.	.	.	.	.	.	.	.	4ff\	.	4ff\	.	8F\L	.	.	4a-\	.	.
.	.	.	.	.	.	.	.	.	.	.	.	.	.	.	.	.	.	.	8E-\	.	.	.	.	.
.	.	.	.	.	.	.	.	.	.	.	.	.	.	.	4r	.	4r	.	8D\	.	.	4r	.	.
.	.	.	.	.	.	.	.	.	.	.	.	.	.	.	.	.	.	.	8C\J	.	.	.	.	.
=89	=89	=89	=89	=89	=89	=89	=89	=89	=89	=89	=89	=89	=89	=89	=89	=89	=89	=89	=89	=89	=89	=89	=89	=89
.	.	.	2d\	Ju-	.	.	.	.	.	.	2ff\	Ju-	.	.	2b-/	.	2b-/	.	2BB-/	.	.	2dd\	.	1ryy
.	.	.	8B-\L	-di-	.	.	.	.	.	.	8dd\L	-di-	.	.	2r	.	2r	.	2r	.	.	8b-\L	.	.
.	.	.	8c\	.	.	.	.	.	.	.	8ee-\	.	.	.	.	.	.	.	.	.	.	8cc\	.	.
.	.	.	8d\	.	.	.	.	.	.	.	8ff\	.	.	.	.	.	.	.	.	.	.	8dd\	.	.
.	.	.	8e-\J	.	.	.	.	.	.	.	8gg\J	.	.	.	.	.	.	.	.	.	.	8ee-\J	.	.
=90	=90	=90	=90	=90	=90	=90	=90	=90	=90	=90	=90	=90	=90	=90	=90	=90	=90	=90	=90	=90	=90	=90	=90	=90
4r	.	.	2d\	-can-	.	.	.	.	.	.	2ff\	-can-	.	.	4r	.	4r	.	4r	.	.	2dd\	.	1ryy
2B-\	et	.	.	.	.	.	.	.	.	.	.	.	.	.	4b-/	.	4b-/	.	4BB-/	.	.	.	.	.
.	.	.	4B-\	-ti	.	.	.	.	.	.	4dd\	-ti	.	.	4b-/	.	4b-/	.	4B-\	.	.	4b-\	.	.
4BB-/	na-	.	4r	.	.	.	.	.	.	.	4r	.	.	.	4b-/	.	4b-/	.	4BB-/	.	.	4r	.	.
=91	=91	=91	=91	=91	=91	=91	=91	=91	=91	=91	=91	=91	=91	=91	=91	=91	=91	=91	=91	=91	=91	=91	=91	=91
4F\	-tu-	.	2c\	reſ-	.	.	.	.	.	.	2ee-\	res-	.	.	2ff\	.	2ff\	.	2G\	.	.	2cc\	.	1ryy
4F\	-ra	.	.	.	.	.	.	.	.	.	.	.	.	.	.	.	.	.	.	.	.	.	.	.
2r	.	.	8A-\L	-pon-	.	.	.	.	.	.	8cc\L	-pon-	.	.	2r	.	2r	.	2r	.	.	8a-\L	.	.
.	.	.	8B-\	.	.	.	.	.	.	.	8dd\	.	.	.	.	.	.	.	.	.	.	8b-\	.	.
.	.	.	8c\	.	.	.	.	.	.	.	8ee-\	.	.	.	.	.	.	.	.	.	.	8cc\	.	.
.	.	.	8d\J	.	.	.	.	.	.	.	8ff\J	.	.	.	.	.	.	.	.	.	.	8dd\J	.	.
=92	=92	=92	=92	=92	=92	=92	=92	=92	=92	=92	=92	=92	=92	=92	=92	=92	=92	=92	=92	=92	=92	=92	=92	=92
4r	.	.	2c\	-ſu-	.	.	0r	.	.	.	2ee-\	-su-	.	.	4r	.	4r	.	4r	.	.	2cc\	.	1ryy
*	*ij	*	*	*	*	*	*	*	*	*	*	*	*	*	*	*	*	*	*	*	*	*	*	*
2F\	et	.	.	.	.	.	.	.	.	.	.	.	.	.	4ff\	.	4ff\	.	4FF/	.	.	.	.	.
.	.	.	4A-\	-ra	.	.	.	.	.	.	4cc\	-ra	.	.	4ff\	.	4ff\	.	4F\	.	.	4a-\	.	.
4F\	na-	.	4r	.	.	.	.	.	.	.	4r	.	.	.	4ff\	.	4ff\	.	4FF/	.	.	4r	.	.
=93	=93	=93	=93	=93	=93	=93	=93	=93	=93	=93	=93	=93	=93	=93	=93	=93	=93	=93	=93	=93	=93	=93	=93	=93
!	!	!	!LO:TX:a:t=2:mod=	!	!	!	!	!	!	!	!LO:TX:a:t=2:mod=	!	!	!	!	!	!	!	!	!	!	!	!	!
4B-\	-tu-	.	0r	.	.	.	.	.	.	.	0r	.	.	.	4b-/	.	4ff\	.	4BB-/	.	.	8r	.	1ryy
.	.	.	.	.	.	.	.	.	.	.	.	.	.	.	.	.	.	.	.	.	.	8b-\L	.	.
4BB-/	-ra	.	.	.	.	.	.	.	.	.	.	.	.	.	4r	.	4r	.	4r	.	.	8dd\	.	.
.	.	.	.	.	.	.	.	.	.	.	.	.	.	.	.	.	.	.	.	.	.	8b-\J	.	.
2r	.	.	.	.	.	.	.	.	.	.	.	.	.	.	4ff\	.	4ff\	.	4FF/	.	.	8b-\L	.	.
.	.	.	.	.	.	.	.	.	.	.	.	.	.	.	.	.	.	.	.	.	.	8a-\	.	.
.	.	.	.	.	.	.	.	.	.	.	.	.	.	.	4r	.	4r	.	4r	.	.	8a-\	.	.
.	.	.	.	.	.	.	.	.	.	.	.	.	.	.	.	.	.	.	.	.	.	8cc\J	.	.
=94	=94	=94	=94	=94	=94	=94	=94	=94	=94	=94	=94	=94	=94	=94	=94	=94	=94	=94	=94	=94	=94	=94	=94	=94
!LO:TX:a:t=1:mod=	!	!	!	!	!	!	!	!	!	!	!	!	!	!	!	!	!	!	!	!	!	!	!	!
1r	.	.	.	.	.	.	4f\	et	.	.	.	.	.	.	4b-/	.	4ff\	.	4BB-/	.	.	8cc\L	.	1ryy
.	.	.	.	.	.	.	.	.	.	.	.	.	.	.	.	.	.	.	.	.	.	8b-\	.	.
.	.	.	.	.	.	.	4g\	na-	.	.	.	.	.	.	4r	.	4r	.	4r	.	.	8dd\	.	.
.	.	.	.	.	.	.	.	.	.	.	.	.	.	.	.	.	.	.	.	.	.	8b-\J	.	.
.	.	.	.	.	.	.	2f\	-tu-	.	.	.	.	.	.	4ff\	.	4ff\	.	4F\	.	.	8b-\L	.	.
.	.	.	.	.	.	.	.	.	.	.	.	.	.	.	.	.	.	.	.	.	.	8a-\	.	.
.	.	.	.	.	.	.	.	.	.	.	.	.	.	.	4ff\	.	4ff\	.	4FF/	.	.	8a-\	.	.
.	.	.	.	.	.	.	.	.	.	.	.	.	.	.	.	.	.	.	.	.	.	8cc\J	.	.
=95	=95	=95	=95	=95	=95	=95	=95	=95	=95	=95	=95	=95	=95	=95	=95	=95	=95	=95	=95	=95	=95	=95	=95	=95
!	!	!	!	!	!	!	!	!	!	!	!	!	!	!	!	!	!	!	!	!	!	!LO:TX:a:t=P:problem=mixed beam	!	!
4B-\	et	.	4B-\	res-	.	.	2f\	-ra	.	.	8dd\L	res-	.	.	4b-/	.	4ff\	.	4BB-/	.	.	8b-\L	.	1ryy
.	.	.	.	.	.	.	.	.	.	.	8ff\J	.	.	.	.	.	.	.	.	.	.	8dd\	.	.
4E-\	na-	.	8c\L	-pon-	.	.	.	.	.	.	8ee-\L	-pon-	.	.	4ee-\	.	4gg\	.	4E-/	.	.	8g\	.	.
.	.	.	8e-\J	.	.	.	.	.	.	.	8cc\J	.	.	.	.	.	.	.	.	.	.	8e-\J	.	.
2F\	-tu-	.	4d\	-su-	.	.	2r	.	.	.	4b-\	-su-	.	.	4ff\	.	4ff\	.	4F\	.	.	4d/	.	.
.	.	.	4c\	.	.	.	.	.	.	.	4a-\	.	.	.	4ff\	.	4ff\	.	4FF/	.	.	4c/	.	.
=96	=96	=96	=96	=96	=96	=96	=96	=96	=96	=96	=96	=96	=96	=96	=96	=96	=96	=96	=96	=96	=96	=96	=96	=96
*	*	*	*	*	*	*	*	*ij	*	*	*	*	*	*	*	*	*	*	*	*	*	*	*	*
2BB-/	-ra	.	2d\	-ra	.	.	4f\	et	.	.	2b-\	-ra	.	.	2b-/	.	1ff	.	4BB-/	.	.	8d/L	.	1ryy
.	.	.	.	.	.	.	.	.	.	.	.	.	.	.	.	.	.	.	.	.	.	8f/	.	.
.	.	.	.	.	.	.	4g\	na-	.	.	.	.	.	.	.	.	.	.	4B-\	.	.	8d/	.	.
.	.	.	.	.	.	.	.	.	.	.	.	.	.	.	.	.	.	.	.	.	.	8f/	.	.
2r	.	.	2r	.	.	.	2f\	-tu-	.	.	2r	.	.	.	2ff\	.	.	.	4An\	.	.	8e-/	.	.
.	.	.	.	.	.	.	.	.	.	.	.	.	.	.	.	.	.	.	.	.	.	8f/J	.	.
.	.	.	.	.	.	.	.	.	.	.	.	.	.	.	.	.	.	.	4F\	.	.	8a\L	.	.
.	.	.	.	.	.	.	.	.	.	.	.	.	.	.	.	.	.	.	.	.	.	8cc\J	.	.
=97	=97	=97	=97	=97	=97	=97	=97	=97	=97	=97	=97	=97	=97	=97	=97	=97	=97	=97	=97	=97	=97	=97	=97	=97
*	*	*	*	*ij	*	*	*	*	*	*	*	*ij	*	*	*	*	*	*	*	*	*	*	*	*
4B-\	et	.	4B-\	res-	.	.	2f\	-ra	.	.	4dd\	res-	.	.	4b-/	.	4ff\	.	4BB-/	.	.	8b-\L	.	1ryy
.	.	.	.	.	.	.	.	.	.	.	.	.	.	.	.	.	.	.	.	.	.	8f\	.	.
4E-\	na-	.	8c\L	-pon-	.	.	.	.	.	.	8ee-\L	-pon-	.	.	4ee-\	.	4gg\	.	4E-/	.	.	8g\	.	.
.	.	.	8e-\J	.	.	.	.	.	.	.	8cc\J	.	.	.	.	.	.	.	.	.	.	8e-\J	.	.
*	*	*	*	*	*	*	*	*Xij	*	*	*	*	*	*	*	*	*	*	*	*	*	*	*	*
2F\	-tu-	.	4d\	-su-	.	.	2r	.	.	.	4b-\	-su-	.	.	4ff\	.	4ff\	.	4F\	.	.	4d/	.	.
.	.	.	4c\	.	.	.	.	.	.	.	4a-\	.	.	.	4ff\	.	4ff\	.	4FF/	.	.	4c/	.	.
=98	=98	=98	=98	=98	=98	=98	=98	=98	=98	=98	=98	=98	=98	=98	=98	=98	=98	=98	=98	=98	=98	=98	=98	=98
2BB-/	-ra	.	2d\	-ra	.	.	1ryy	.	.	.	2b-\	-ra	.	.	4b-/	.	4ff\	.	4BB-/	.	.	4d/	.	1ryy
.	.	.	.	.	.	.	.	.	.	.	.	.	.	.	4b-/	.	4ff\	.	4C/	.	.	4d/	.	.
*	*Xij	*	*	*Xij	*	*	*	*	*	*	*	*Xij	*	*	*	*	*	*	*	*	*	*	*	*
2r	.	.	2r	.	.	.	.	.	.	.	2r	.	.	.	2b-/	.	2ff\	.	2BB-/	.	.	2d/	.	.
==	==	==	==	==	==	==	==	==	==	==	==	==	==	==	==	==	==	==	==	==	==	==	==	==
*-	*-	*-	*-	*-	*-	*-	*-	*-	*-	*-	*-	*-	*-	*-	*-	*-	*-	*-	*-	*-	*-	*-	*-	*-
!!!system-decoration: [(s1,s2,s3)][(s4,s5)][(s6,s7,s8,s9)]
!!!RDF**kern: > = above
!!!RDF**kern: < = below
!!!RDF**kern: | = vertical stroke
!!!RDF**kern: N = linked
!!!RDF**kern: i = editorial accidental
!!!RDF**kern: l = terminal long
!!!filter-modern: sic -sq | autostem -r | tie -s | humtr -p  | shed -e "s/LO:DY:(a|b|rj)/LO:dy:$1/L" | shed -e "s/^(\d+[\/\\]right)/$1yy/I; s/^(\d+[\/\\]left)/$1yy/I" | shed -e "s/TX(.*):t=P:/tx$1:t=P:/LG" | modori -m
!!!ENC: Berenika Jozajtis
!!!END: 2020-09-23
!!!EED: Wojciech Jakubiak-Danek
!!!EEV: 2022-01-31
!!!ENC-modern: Leszek Kubiak
!!!END-modern: 2022-11-29
